; generated by PrusaSlicer 2.9.2 on 2025-07-25 at 15:57:57 UTC

; 

; external perimeters extrusion width = 0.45mm
; perimeters extrusion width = 0.45mm
; infill extrusion width = 0.45mm
; solid infill extrusion width = 0.45mm
; top infill extrusion width = 0.40mm
; support material extrusion width = 0.35mm
; first layer extrusion width = 0.42mm

M190 S60 ; set bed temperature and wait for it to be reached
M104 S200 ; set temperature
;TYPE:Custom
G28 ; home all axes
G1 Z5 F5000 ; lift nozzle
M109 S200 ; set temperature and wait for it to be reached
G21 ; set units to millimeters
G90 ; use absolute coordinates
M82 ; use absolute distances for extrusion
G92 E0
; Filament gcode
M107
;LAYER_CHANGE
;Z:0.35
;HEIGHT:0.35
G1 E-2 F2400
G92 E0
G1 Z.35 F7800
G1 X73.039 Y3.999
G1 E2 F2400
;TYPE:Skirt/Brim
;WIDTH:0.42
G1 F1800
G1 X73.435 Y1.822 E2.11105
G1 X74.575 Y-.075 E2.22212
G1 X76.31 Y-1.449 E2.33319
G1 X79.211 Y-2.173 E2.48324
G1 X140.789 Y-2.173 E5.57359
G1 X142.966 Y-1.777 E5.68464
G1 X144.864 Y-.637 E5.79575
G1 X146.237 Y1.098 E5.90679
G1 X146.961 Y3.999 E6.05684
G1 X146.961 Y48.863 E8.30838
G1 X143.641 Y183.951 E15.08994
G1 X143.364 Y186.893 E15.23824
G1 X142.797 Y189.793 E15.38653
G1 X141.945 Y192.622 E15.5348
G1 X140.817 Y195.353 E15.68309
G1 X139.269 Y198.215 E15.84639
G1 X137.596 Y200.659 E15.99503
G1 X136.673 Y201.814 E16.06923
G1 X134.883 Y203.759 E16.20189
G1 X132.683 Y205.74 E16.35046
G1 X130.301 Y207.489 E16.49877
G1 X127.487 Y209.135 E16.66238
G1 X124.795 Y210.354 E16.81069
G1 X121.996 Y211.3 E16.95897
G1 X95.142 Y217.667 E18.34402
G1 X93.663 Y217.926 E18.41937
G1 X91.715 Y218.045 E18.51731
G1 X89.92 Y217.936 E18.60756
G1 X88.001 Y217.583 E18.70548
G1 X85.859 Y216.877 E18.81867
G1 X84.501 Y216.236 E18.89403
G1 X83.59 Y215.71 E18.94682
G1 X82.596 Y215.036 E19.00709
G1 X81.435 Y214.089 E19.08228
G1 X79.875 Y212.464 E19.19533
G1 X78.974 Y211.262 E19.27072
G1 X78.416 Y210.373 E19.3234
G1 X77.428 Y208.345 E19.43661
G1 X76.94 Y206.925 E19.51196
G1 X76.651 Y205.761 E19.57215
G1 X76.355 Y203.531 E19.68505
G1 X73.04 Y23.906 E28.70123
G1 X73.039 Y4.059 E29.69727
G1 E27.69727 F2400
G92 E0
G92 E0
G1 X99.005 Y9.57 F7800
G1 E2 F2400
;TYPE:Support material
G1 F1800
G1 X129.352 Y9.57 E3.52299
G1 X129.352 Y3.999 E3.80258
G1 X140.789 Y3.999 E4.37656
G1 X140.789 Y48.863 E6.6281
G1 X137.935 Y48.863 E6.77133
G1 X137.935 Y43.446 E7.04319
G1 X137.68 Y43.191 E7.06129
G1 X131.935 Y43.191 E7.34961
G1 X131.935 Y17.946 E8.61655
G1 X131.68 Y17.691 E8.63465
G1 X90.354 Y17.691 E10.70863
G1 X90.354 Y12.65 E10.96162
G1 X87.862 Y12.65 E11.08668
G1 X87.862 Y17.691 E11.33967
G1 X82.32 Y17.691 E11.6178
G1 X82.065 Y17.946 E11.6359
G1 X82.065 Y23.793 E11.92934
G1 X79.211 Y23.793 E12.07257
G1 X79.211 Y3.999 E13.06595
G1 X99.005 Y3.999 E14.05933
G1 X99.005 Y9.519 E14.33636
G1 E12.33636 F2400
G92 E0
G1 X140.274 Y48.708 F7800
G1 E2 F2400
G1 F1800
G1 X140.274 Y4.31 E4.22815
G1 X139.89 Y4.31 E4.24742
G1 X139.89 Y48.553 E6.4678
G1 X139.507 Y48.553 E6.48702
G1 X139.507 Y4.31 E8.7074
G1 X139.124 Y4.31 E8.72662
G1 X139.124 Y48.553 E10.947
G1 X138.741 Y48.553 E10.96622
G1 X138.741 Y4.31 E13.1866
G1 X138.358 Y4.31 E13.20582
G1 X138.358 Y48.553 E15.4262
G1 X138.245 Y48.553 E15.43187
G1 X138.245 Y43.318 E15.69459
G1 X137.974 Y43.047 E15.71382
G1 X137.974 Y4.31 E17.65787
G1 X137.591 Y4.31 E17.67709
G1 X137.591 Y42.881 E19.61281
G1 X137.208 Y42.881 E19.63203
G1 X137.208 Y4.31 E21.56775
G1 X136.825 Y4.31 E21.58697
G1 X136.825 Y42.881 E23.52269
G1 X136.441 Y42.881 E23.54196
G1 X136.441 Y4.31 E25.47768
G1 X136.058 Y4.31 E25.4969
G1 X136.058 Y42.881 E27.43262
G1 X135.675 Y42.881 E27.45184
G1 X135.675 Y4.31 E29.38756
G1 X135.292 Y4.31 E29.40678
G1 X135.292 Y42.881 E31.3425
G1 X134.909 Y42.881 E31.36172
G1 X134.909 Y4.31 E33.29744
G1 X134.525 Y4.31 E33.31671
G1 X134.525 Y42.881 E35.25243
G1 X134.142 Y42.881 E35.27165
G1 X134.142 Y4.31 E37.20737
G1 X133.759 Y4.31 E37.22659
G1 X133.759 Y42.881 E39.16231
G1 X133.376 Y42.881 E39.18153
G1 X133.376 Y4.31 E41.11725
G1 X132.993 Y4.31 E41.13647
G1 X132.993 Y42.881 E43.07219
G1 X132.609 Y42.881 E43.09146
G1 X132.609 Y4.31 E45.02718
G1 X132.226 Y4.31 E45.0464
G1 X132.226 Y17.799 E45.72336
G1 X131.843 Y17.415 E45.75058
G1 X131.843 Y4.31 E46.40827
G1 X131.46 Y4.31 E46.42749
G1 X131.46 Y17.381 E47.08347
G1 X131.077 Y17.381 E47.10269
G1 X131.077 Y4.31 E47.75867
G1 X130.693 Y4.31 E47.77794
G1 X130.693 Y17.381 E48.43392
G1 X130.31 Y17.381 E48.45314
G1 X130.31 Y4.31 E49.10912
G1 X129.927 Y4.31 E49.12834
G1 X129.927 Y17.381 E49.78432
G1 X129.544 Y17.381 E49.80354
G1 X129.544 Y9.881 E50.17993
G1 X129.161 Y9.881 E50.19915
G1 X129.161 Y17.381 E50.57554
G1 X128.777 Y17.381 E50.59481
G1 X128.777 Y9.881 E50.9712
G1 X128.394 Y9.881 E50.99042
G1 X128.394 Y17.381 E51.36681
G1 X128.011 Y17.381 E51.38603
G1 X128.011 Y9.881 E51.76242
G1 X127.628 Y9.881 E51.78164
G1 X127.628 Y17.381 E52.15803
G1 X127.244 Y17.381 E52.1773
G1 X127.244 Y9.881 E52.55369
G1 X126.861 Y9.881 E52.57291
G1 X126.861 Y17.381 E52.9493
G1 X126.478 Y17.381 E52.96852
G1 X126.478 Y9.881 E53.34491
G1 X126.095 Y9.881 E53.36413
G1 X126.095 Y17.381 E53.74052
G1 X125.712 Y17.381 E53.75974
G1 X125.712 Y9.881 E54.13613
G1 X125.328 Y9.881 E54.1554
G1 X125.328 Y17.381 E54.53179
G1 X124.945 Y17.381 E54.55101
G1 X124.945 Y9.881 E54.9274
G1 X124.562 Y9.881 E54.94662
G1 X124.562 Y17.381 E55.32301
G1 X124.179 Y17.381 E55.34223
G1 X124.179 Y9.881 E55.71862
G1 X123.796 Y9.881 E55.73784
G1 X123.796 Y17.381 E56.11423
G1 X123.412 Y17.381 E56.1335
G1 X123.412 Y9.881 E56.50989
G1 X123.029 Y9.881 E56.52911
G1 X123.029 Y17.381 E56.9055
G1 X122.646 Y17.381 E56.92472
G1 X122.646 Y9.881 E57.30111
G1 X122.263 Y9.881 E57.32033
G1 X122.263 Y17.381 E57.69672
G1 X121.88 Y17.381 E57.71594
G1 X121.88 Y9.881 E58.09233
G1 X121.496 Y9.881 E58.1116
G1 X121.496 Y17.381 E58.48799
G1 X121.113 Y17.381 E58.50721
G1 X121.113 Y9.881 E58.8836
G1 X120.73 Y9.881 E58.90282
G1 X120.73 Y17.381 E59.27921
G1 X120.347 Y17.381 E59.29843
G1 X120.347 Y9.881 E59.67482
G1 X119.963 Y9.881 E59.69409
G1 X119.963 Y17.381 E60.07048
G1 X119.58 Y17.381 E60.0897
G1 X119.58 Y9.881 E60.46609
G1 X119.197 Y9.881 E60.48531
G1 X119.197 Y17.381 E60.8617
G1 X118.814 Y17.381 E60.88092
G1 X118.814 Y9.881 E61.25731
G1 X118.431 Y9.881 E61.27653
G1 X118.431 Y17.381 E61.65292
G1 X118.047 Y17.381 E61.67219
G1 X118.047 Y9.881 E62.04858
G1 X117.664 Y9.881 E62.0678
G1 X117.664 Y17.381 E62.44419
G1 X117.281 Y17.381 E62.46341
G1 X117.281 Y9.881 E62.8398
G1 X116.898 Y9.881 E62.85902
G1 X116.898 Y17.381 E63.23541
G1 X116.515 Y17.381 E63.25463
G1 X116.515 Y9.881 E63.63102
G1 X116.131 Y9.881 E63.65029
G1 X116.131 Y17.381 E64.02668
G1 X115.748 Y17.381 E64.0459
G1 X115.748 Y9.881 E64.42229
G1 X115.365 Y9.881 E64.44151
G1 X115.365 Y17.381 E64.8179
G1 X114.982 Y17.381 E64.83712
G1 X114.982 Y9.881 E65.21351
G1 X114.599 Y9.881 E65.23273
G1 X114.599 Y17.381 E65.60912
G1 X114.215 Y17.381 E65.62839
G1 X114.215 Y9.881 E66.00478
G1 X113.832 Y9.881 E66.024
G1 X113.832 Y17.381 E66.40039
G1 X113.449 Y17.381 E66.41961
G1 X113.449 Y9.881 E66.796
G1 X113.066 Y9.881 E66.81522
G1 X113.066 Y17.381 E67.19161
G1 X112.682 Y17.381 E67.21088
G1 X112.682 Y9.881 E67.58727
G1 X112.299 Y9.881 E67.60649
G1 X112.299 Y17.381 E67.98288
G1 X111.916 Y17.381 E68.0021
G1 X111.916 Y9.881 E68.37849
G1 X111.533 Y9.881 E68.39771
G1 X111.533 Y17.381 E68.7741
G1 X111.15 Y17.381 E68.79332
G1 X111.15 Y9.881 E69.16971
G1 X110.766 Y9.881 E69.18898
G1 X110.766 Y17.381 E69.56537
G1 X110.383 Y17.381 E69.58459
G1 X110.383 Y9.881 E69.96098
G1 X110 Y9.881 E69.9802
G1 X110 Y17.381 E70.35659
G1 X109.617 Y17.381 E70.37581
G1 X109.617 Y9.881 E70.7522
G1 X109.234 Y9.881 E70.77142
G1 X109.234 Y17.381 E71.14781
G1 X108.85 Y17.381 E71.16708
G1 X108.85 Y9.881 E71.54347
G1 X108.467 Y9.881 E71.56269
G1 X108.467 Y17.381 E71.93908
G1 X108.084 Y17.381 E71.9583
G1 X108.084 Y9.881 E72.33469
G1 X107.701 Y9.881 E72.35391
G1 X107.701 Y17.381 E72.7303
G1 X107.318 Y17.381 E72.74952
G1 X107.318 Y9.881 E73.12591
G1 X106.934 Y9.881 E73.14518
G1 X106.934 Y17.381 E73.52157
G1 X106.551 Y17.381 E73.54079
G1 X106.551 Y9.881 E73.91718
G1 X106.168 Y9.881 E73.9364
G1 X106.168 Y17.381 E74.31279
G1 X105.785 Y17.381 E74.33201
G1 X105.785 Y9.881 E74.7084
G1 X105.401 Y9.881 E74.72767
G1 X105.401 Y17.381 E75.10406
G1 X105.018 Y17.381 E75.12328
G1 X105.018 Y9.881 E75.49967
G1 X104.635 Y9.881 E75.51889
G1 X104.635 Y17.381 E75.89528
G1 X104.252 Y17.381 E75.9145
G1 X104.252 Y9.881 E76.29089
G1 X103.869 Y9.881 E76.31011
G1 X103.869 Y17.381 E76.6865
G1 X103.485 Y17.381 E76.70577
G1 X103.485 Y9.881 E77.08216
G1 X103.102 Y9.881 E77.10138
G1 X103.102 Y17.381 E77.47777
G1 X102.719 Y17.381 E77.49699
G1 X102.719 Y9.881 E77.87338
G1 X102.336 Y9.881 E77.8926
G1 X102.336 Y17.381 E78.26899
G1 X101.953 Y17.381 E78.28821
G1 X101.953 Y9.881 E78.6646
G1 X101.569 Y9.881 E78.68387
G1 X101.569 Y17.381 E79.06026
G1 X101.186 Y17.381 E79.07948
G1 X101.186 Y9.881 E79.45587
G1 X100.803 Y9.881 E79.47509
G1 X100.803 Y17.381 E79.85148
G1 X100.42 Y17.381 E79.8707
G1 X100.42 Y9.881 E80.24709
G1 X100.037 Y9.881 E80.26631
G1 X100.037 Y17.381 E80.6427
G1 X99.653 Y17.381 E80.66197
G1 X99.653 Y9.881 E81.03836
G1 X99.27 Y9.881 E81.05758
G1 X99.27 Y17.381 E81.43397
G1 X98.887 Y17.381 E81.45319
G1 X98.887 Y9.881 E81.82958
G1 X98.694 Y9.881 E81.83927
G1 X98.694 Y4.31 E82.11886
G1 X98.504 Y4.31 E82.1284
G1 X98.504 Y17.381 E82.78438
G1 X98.12 Y17.381 E82.80365
G1 X98.12 Y4.31 E83.45963
G1 X97.737 Y4.31 E83.47885
G1 X97.737 Y17.381 E84.13483
G1 X97.354 Y17.381 E84.15405
G1 X97.354 Y4.31 E84.81003
G1 X96.971 Y4.31 E84.82925
G1 X96.971 Y17.381 E85.48523
G1 X96.588 Y17.381 E85.50445
G1 X96.588 Y4.31 E86.16043
G1 X96.204 Y4.31 E86.1797
G1 X96.204 Y17.381 E86.83568
G1 X95.821 Y17.381 E86.8549
G1 X95.821 Y4.31 E87.51088
G1 X95.438 Y4.31 E87.5301
G1 X95.438 Y17.381 E88.18608
G1 X95.055 Y17.381 E88.2053
G1 X95.055 Y4.31 E88.86128
G1 X94.672 Y4.31 E88.8805
G1 X94.672 Y17.381 E89.53648
G1 X94.288 Y17.381 E89.55575
G1 X94.288 Y4.31 E90.21173
G1 X93.905 Y4.31 E90.23095
G1 X93.905 Y17.381 E90.88693
G1 X93.522 Y17.381 E90.90615
G1 X93.522 Y4.31 E91.56213
G1 X93.139 Y4.31 E91.58135
G1 X93.139 Y17.381 E92.23733
G1 X92.756 Y17.381 E92.25655
G1 X92.756 Y4.31 E92.91253
G1 X92.372 Y4.31 E92.9318
G1 X92.372 Y17.381 E93.58778
G1 X91.989 Y17.381 E93.607
G1 X91.989 Y4.31 E94.26298
G1 X91.606 Y4.31 E94.2822
G1 X91.606 Y17.381 E94.93818
G1 X91.223 Y17.381 E94.9574
G1 X91.223 Y4.31 E95.61338
G1 X90.84 Y4.31 E95.6326
G1 X90.84 Y17.381 E96.28858
G1 X90.664 Y17.381 E96.29741
G1 X90.664 Y12.34 E96.5504
G1 X90.456 Y12.34 E96.56084
G1 X90.456 Y4.31 E96.96383
G1 X90.073 Y4.31 E96.98305
G1 X90.073 Y12.34 E97.38604
G1 X89.69 Y12.34 E97.40526
G1 X89.69 Y4.31 E97.80825
G1 X89.307 Y4.31 E97.82747
G1 X89.307 Y12.34 E98.23046
G1 X88.923 Y12.34 E98.24973
G1 X88.923 Y4.31 E98.65272
G1 X88.54 Y4.31 E98.67194
G1 X88.54 Y12.34 E99.07493
G1 X88.157 Y12.34 E99.09415
G1 X88.157 Y4.31 E99.49714
G1 X87.774 Y4.31 E99.51636
G1 X87.774 Y12.34 E99.91935
G1 X87.552 Y12.34 E99.93049
G1 X87.552 Y17.381 E100.18348
G1 X87.391 Y17.381 E100.19156
G1 X87.391 Y4.31 E100.84754
G1 X87.007 Y4.31 E100.86681
G1 X87.007 Y17.381 E101.52279
G1 X86.624 Y17.381 E101.54201
G1 X86.624 Y4.31 E102.19799
G1 X86.241 Y4.31 E102.21721
G1 X86.241 Y17.381 E102.87319
G1 X85.858 Y17.381 E102.89241
G1 X85.858 Y4.31 E103.54839
G1 X85.475 Y4.31 E103.56761
G1 X85.475 Y17.381 E104.22359
G1 X85.091 Y17.381 E104.24286
G1 X85.091 Y4.31 E104.89884
G1 X84.708 Y4.31 E104.91806
G1 X84.708 Y17.381 E105.57404
G1 X84.325 Y17.381 E105.59326
G1 X84.325 Y4.31 E106.24924
G1 X83.942 Y4.31 E106.26846
G1 X83.942 Y17.381 E106.92444
G1 X83.559 Y17.381 E106.94366
G1 X83.559 Y4.31 E107.59964
G1 X83.175 Y4.31 E107.61891
G1 X83.175 Y17.381 E108.27489
G1 X82.792 Y17.381 E108.29411
G1 X82.792 Y4.31 E108.95009
G1 X82.409 Y4.31 E108.96931
G1 X82.409 Y17.381 E109.62529
G1 X82.191 Y17.381 E109.63623
G1 X82.026 Y17.547 E109.64798
G1 X82.026 Y4.31 E110.31229
G1 X81.642 Y4.31 E110.33156
G1 X81.642 Y23.482 E111.29372
G1 X81.259 Y23.482 E111.31294
G1 X81.259 Y4.31 E112.2751
G1 X80.876 Y4.31 E112.29432
G1 X80.876 Y23.482 E113.25648
G1 X80.493 Y23.482 E113.2757
G1 X80.493 Y4.31 E114.23786
G1 X80.11 Y4.31 E114.25708
G1 X80.11 Y23.482 E115.21924
G1 X79.726 Y23.482 E115.23851
G1 X79.726 Y4.154 E116.2085
G1 E114.2085 F2400
G92 E0
G1 X130.861 Y44.27 F7800
G1 E2 F2400
;TYPE:Perimeter
;WIDTH:0.42
G1 F1800
G1 X131.116 Y44.454 E2.01578
G1 X131.462 Y44.526 E2.03352
G1 X136.6 Y44.526 E2.29137
G1 X136.6 Y49.664 E2.54922
G1 X136.6 Y182.615 E9.22148
G1 X136.572 Y183.753 E9.27861
G1 X136.488 Y184.877 E9.33518
G1 X136.349 Y185.996 E9.39177
G1 X136.154 Y187.106 E9.44833
G1 X135.905 Y188.206 E9.50493
G1 X135.601 Y189.291 E9.56148
G1 X135.244 Y190.36 E9.61804
G1 X134.834 Y191.411 E9.67466
G1 X134.373 Y192.439 E9.7312
G1 X133.861 Y193.444 E9.7878
G1 X133.303 Y194.416 E9.84405
G1 X132.692 Y195.37 E9.9009
G1 X132.037 Y196.288 E9.9575
G1 X131.337 Y197.172 E10.01409
G1 X130.595 Y198.02 E10.07064
G1 X129.811 Y198.83 E10.12721
G1 X128.988 Y199.601 E10.18381
G1 X128.128 Y200.329 E10.24036
G1 X127.233 Y201.014 E10.29692
G1 X126.305 Y201.654 E10.35349
G1 X125.346 Y202.247 E10.41008
G1 X124.36 Y202.792 E10.46662
G1 X123.347 Y203.288 E10.52323
G1 X122.311 Y203.732 E10.5798
G1 X121.254 Y204.125 E10.63639
G1 X120.18 Y204.464 E10.69291
G1 X119.078 Y204.753 E10.75008
G1 X93.686 Y210.746 E12.05941
G1 X92.865 Y210.898 E12.10131
G1 X92.057 Y210.967 E12.14201
G1 X91.242 Y210.958 E12.18291
G1 X90.434 Y210.869 E12.22371
G1 X89.648 Y210.704 E12.26402
G1 X88.485 Y210.308 E12.32568
G1 X87.392 Y209.746 E12.38736
G1 X86.728 Y209.295 E12.42764
G1 X86.113 Y208.783 E12.4678
G1 X85.269 Y207.887 E12.52957
G1 X84.572 Y206.887 E12.59074
G1 X84.023 Y205.788 E12.65239
G1 X83.755 Y205.032 E12.69264
G1 X83.561 Y204.252 E12.73298
G1 X83.411 Y203.022 E12.79517
G1 X83.4 Y19.026 E22.02917
G1 X130.6 Y19.026 E24.39794
G1 X130.6 Y43.664 E25.63442
G1 X130.647 Y43.944 E25.64867
G1 X130.817 Y44.231 E25.66541
G1 X131.109 Y44.017 F7800
G1 F1800
G1 X131.22 Y44.121 E25.67304
G1 X131.462 Y44.181 E25.68555
G1 X136.945 Y44.181 E25.96072
G1 X136.945 Y49.664 E26.23589
G1 X136.945 Y182.62 E32.9084
G1 X136.917 Y183.77 E32.96613
G1 X136.832 Y184.912 E33.0236
G1 X136.69 Y186.047 E33.08101
G1 X136.492 Y187.174 E33.13844
G1 X136.239 Y188.29 E33.19587
G1 X135.931 Y189.392 E33.25329
G1 X135.568 Y190.478 E33.31076
G1 X135.152 Y191.544 E33.36819
G1 X134.684 Y192.588 E33.42561
G1 X134.165 Y193.608 E33.48305
G1 X133.598 Y194.595 E33.54018
G1 X132.977 Y195.564 E33.59794
G1 X132.313 Y196.495 E33.65533
G1 X131.602 Y197.392 E33.71277
G1 X130.849 Y198.253 E33.77017
G1 X130.053 Y199.076 E33.82763
G1 X129.218 Y199.858 E33.88504
G1 X128.345 Y200.598 E33.94247
G1 X127.436 Y201.293 E33.9999
G1 X126.494 Y201.943 E34.05734
G1 X125.521 Y202.545 E34.11476
G1 X124.519 Y203.098 E34.1722
G1 X123.491 Y203.601 E34.22964
G1 X122.439 Y204.052 E34.28708
G1 X121.367 Y204.451 E34.34448
G1 X120.275 Y204.796 E34.40195
G1 X119.162 Y205.088 E34.4597
G1 X93.757 Y211.083 E35.76969
G1 X92.911 Y211.24 E35.81287
G1 X92.069 Y211.312 E35.85528
G1 X91.222 Y211.302 E35.89779
G1 X90.38 Y211.21 E35.9403
G1 X89.557 Y211.037 E35.98251
G1 X88.35 Y210.626 E36.0465
G1 X87.216 Y210.043 E36.11049
G1 X86.521 Y209.571 E36.15265
G1 X85.876 Y209.035 E36.19474
G1 X85 Y208.105 E36.25886
G1 X84.274 Y207.064 E36.32255
G1 X83.705 Y205.923 E36.38654
G1 X83.424 Y205.131 E36.42871
G1 X83.221 Y204.315 E36.47091
G1 X83.066 Y203.043 E36.53522
G1 X83.055 Y18.681 E45.78759
G1 X130.945 Y18.681 E48.19099
G1 X130.945 Y43.681 E49.44564
G1 X131.022 Y43.936 E49.45901
G1 X131.066 Y43.976 E49.46199
G1 X131.351 Y43.781 F7800
;TYPE:External perimeter
G1 F1800
G1 X131.462 Y43.836 E49.46821
G1 X137.29 Y43.836 E49.76069
G1 X137.29 Y49.664 E50.05317
G1 X137.29 Y182.624 E56.72588
G1 X137.261 Y183.788 E56.78431
G1 X137.175 Y184.946 E56.84259
G1 X137.031 Y186.098 E56.90085
G1 X136.831 Y187.242 E56.95913
G1 X136.574 Y188.375 E57.01744
G1 X136.261 Y189.494 E57.07575
G1 X135.893 Y190.595 E57.13401
G1 X135.471 Y191.677 E57.19229
G1 X134.995 Y192.737 E57.2506
