; generated by PrusaSlicer 2.9.2 on 2025-07-25 at 12:32:20 UTC

; 

; external perimeters extrusion width = 0.45mm
; perimeters extrusion width = 0.45mm
; infill extrusion width = 0.45mm
; solid infill extrusion width = 0.45mm
; top infill extrusion width = 0.40mm
; support material extrusion width = 0.35mm
; first layer extrusion width = 0.42mm

; external perimeters extrusion width = 0.45mm
; perimeters extrusion width = 0.45mm
; infill extrusion width = 0.45mm
; solid infill extrusion width = 0.45mm
; top infill extrusion width = 0.40mm
; support material extrusion width = 0.35mm
; first layer extrusion width = 0.42mm

M190 S60 ; set bed temperature and wait for it to be reached
M104 S200 ; set temperature
;TYPE:Custom
G28 ; home all axes
G1 Z5 F5000 ; lift nozzle
M109 S200 ; set temperature and wait for it to be reached
G21 ; set units to millimeters
G90 ; use absolute coordinates
M82 ; use absolute distances for extrusion
G92 E0
; Filament gcode
M107
;LAYER_CHANGE
;Z:0.35
;HEIGHT:0.35
G1 E-2 F2400
G92 E0
G1 Z.35 F7800
G1 X68.376 Y42.872
G1 E2 F2400
;TYPE:Skirt/Brim
;WIDTH:0.42
G1 F1800
G1 X69.723 Y41.116 E2.11107
G1 X71.602 Y39.947 E2.22213
G1 X73.869 Y39.516 E2.33794
G1 X148.987 Y39.516 E6.10781
G1 X151.164 Y39.912 E6.21886
G1 X153.062 Y41.052 E6.32997
G1 X154.435 Y42.787 E6.44101
G1 X155.154 Y45.429 E6.57842
G1 X158.098 Y115.407 E10.09344
G1 X158.104 Y160.531 E12.35803
G1 X158.02 Y161.546 E12.40914
G1 X155.234 Y178.259 E13.25947
G1 X154.485 Y180.342 E13.37056
G1 X153.51 Y181.609 E13.45079
G1 X150.725 Y184.395 E13.64849
G1 X148.905 Y185.654 E13.75955
G1 X146.36 Y186.203 E13.89021
G1 X70.854 Y186.203 E17.67955
G1 X68.677 Y185.806 E17.79061
G1 X66.49 Y184.395 E17.92123
G1 X63.704 Y181.609 E18.11896
G1 X62.445 Y179.789 E18.23002
G1 X61.896 Y177.245 E18.36063
G1 X61.904 Y109.787 E21.74607
G1 X64.848 Y50.951 E24.7025
G1 X65.52 Y48.443 E24.83281
G1 X68.349 Y42.926 E25.14396
G1 E23.14396 F2400
G92 E0
G92 E0
G1 X146.36 Y110.095 F7800
G1 E2 F2400
;TYPE:Support material
G1 F1800
G1 X149.146 Y110.095 E2.13982
G1 X149.146 Y115.667 E2.41946
G1 X151.931 Y115.667 E2.55923
G1 X151.931 Y160.531 E4.81077
G1 X149.146 Y160.531 E4.95054
G1 X149.146 Y177.245 E5.78935
G1 X146.36 Y177.245 E5.92917
G1 X146.36 Y180.03 E6.06894
G1 X70.854 Y180.03 E9.85828
G1 X70.854 Y177.245 E9.99805
G1 X68.069 Y177.245 E10.13782
G1 X68.069 Y157.451 E11.1312
G1 X81.997 Y157.451 E11.83019
G1 X81.997 Y152.174 E12.09502
G1 X68.069 Y152.174 E12.79401
G1 X68.069 Y110.095 E14.90578
G1 X70.854 Y110.095 E15.04555
G1 X70.854 Y107.31 E15.18532
G1 X146.36 Y107.31 E18.97466
G1 X146.36 Y110.044 E19.11187
G1 X130.32 Y170.705 F7800
G1 F1800
G1 X138.68 Y170.705 E19.53142
G1 X138.935 Y170.96 E19.54952
G1 X138.935 Y172.137 E19.60859
G1 X138.68 Y172.392 E19.62669
G1 X130.32 Y172.392 E20.04624
G1 X130.065 Y172.137 E20.06434
G1 X130.065 Y170.96 E20.12341
G1 X130.283 Y170.742 E20.13888
G1 X78.78 Y170.705 F7800
G1 F1800
G1 X87.14 Y170.705 E20.55843
G1 X87.395 Y170.96 E20.57653
G1 X87.395 Y172.137 E20.6356
G1 X87.14 Y172.392 E20.6537
G1 X78.78 Y172.392 E21.07325
G1 X78.525 Y172.137 E21.09135
G1 X78.525 Y170.96 E21.15042
G1 X78.743 Y170.742 E21.16589
G1 X110.147 Y143.817 F7800
G1 F1800
G1 X132.138 Y143.817 E22.26953
G1 X132.138 Y146.309 E22.39459
G1 X126.567 Y146.309 E22.67418
G1 X126.567 Y160.237 E23.37317
G1 X110.147 Y160.237 E24.19722
G1 X110.147 Y143.869 E25.01866
G1 E23.01866 F2400
G92 E0
G1 X93.433 Y118.747 F7800
G1 E2 F2400
G1 F1800
G1 X95.925 Y118.747 E2.12506
G1 X95.925 Y127.103 E2.54441
G1 X98.71 Y127.103 E2.68418
G1 X98.71 Y143.523 E3.50823
G1 X95.925 Y143.523 E3.648
G1 X95.925 Y154.665 E4.20717
G1 X90.648 Y154.665 E4.472
G1 X90.648 Y143.523 E5.03117
G1 X79.505 Y143.523 E5.59039
G1 X79.505 Y135.46 E5.99504
G1 X93.433 Y135.46 E6.69403
G1 X93.433 Y118.798 E7.53023
G1 X130.32 Y114.948 F7800
G1 F1800
G1 X138.68 Y114.948 E7.94978
G1 X138.935 Y115.203 E7.96788
G1 X138.935 Y116.38 E8.02695
G1 X138.68 Y116.635 E8.04505
G1 X130.32 Y116.635 E8.4646
G1 X130.065 Y116.38 E8.4827
G1 X130.065 Y115.203 E8.54177
G1 X130.283 Y114.985 E8.55724
G1 X78.78 Y114.948 F7800
G1 F1800
G1 X87.14 Y114.948 E8.97679
G1 X87.395 Y115.203 E8.99489
G1 X87.395 Y116.38 E9.05396
G1 X87.14 Y116.635 E9.07206
G1 X78.78 Y116.635 E9.49161
G1 X78.525 Y116.38 E9.50971
G1 X78.525 Y115.203 E9.56878
G1 X78.743 Y114.985 E9.58425
G1 E7.58425 F2400
G92 E0
G1 X151.387 Y160.376 F7800
G1 E2 F2400
G1 F1800
G1 X151.387 Y115.977 E4.2282
G1 X151.003 Y115.977 E4.24747
G1 X151.003 Y160.22 E6.46785
G1 X150.62 Y160.22 E6.48707
G1 X150.62 Y115.977 E8.70745
G1 X150.237 Y115.977 E8.72667
G1 X150.237 Y160.22 E10.94705
G1 X149.854 Y160.22 E10.96627
G1 X149.854 Y115.977 E13.18665
G1 X149.471 Y115.977 E13.20587
G1 X149.471 Y160.22 E15.42625
G1 X149.087 Y160.22 E15.44552
G1 X149.087 Y115.977 E17.6659
G1 X148.835 Y115.977 E17.67855
G1 X148.835 Y110.406 E17.95814
G1 X148.704 Y110.406 E17.96471
G1 X148.704 Y176.934 E21.30348
G1 X148.321 Y176.934 E21.3227
G1 X148.321 Y110.406 E24.66147
G1 X147.938 Y110.406 E24.68069
G1 X147.938 Y176.934 E28.01946
G1 X147.555 Y176.934 E28.03868
G1 X147.555 Y110.406 E31.37745
G1 X147.171 Y110.406 E31.39672
G1 X147.171 Y176.934 E34.73549
G1 X146.788 Y176.934 E34.75471
G1 X146.788 Y110.406 E38.09348
G1 X146.405 Y110.406 E38.1127
G1 X146.405 Y176.934 E41.45147
G1 X146.05 Y176.934 E41.46929
G1 X146.022 Y179.72 E41.60912
G1 X146.022 Y107.62 E45.22752
G1 X145.639 Y107.62 E45.24674
G1 X145.639 Y179.72 E48.86514
G1 X145.255 Y179.72 E48.88441
G1 X145.255 Y107.62 E52.50281
G1 X144.872 Y107.62 E52.52203
G1 X144.872 Y179.72 E56.14043
G1 X144.489 Y179.72 E56.15965
G1 X144.489 Y107.62 E59.77805
G1 X144.106 Y107.62 E59.79727
G1 X144.106 Y179.72 E63.41567
G1 X143.722 Y179.72 E63.43494
G1 X143.723 Y107.62 E67.05334
G1 X143.339 Y107.62 E67.07261
G1 X143.339 Y179.72 E70.69101
G1 X142.956 Y179.72 E70.71023
G1 X142.956 Y107.62 E74.32863
G1 X142.573 Y107.62 E74.34785
G1 X142.573 Y179.72 E77.96625
G1 X142.19 Y179.72 E77.98547
G1 X142.19 Y107.62 E81.60387
G1 X141.806 Y107.62 E81.62314
G1 X141.806 Y179.72 E85.24154
G1 X141.423 Y179.72 E85.26076
G1 X141.423 Y107.62 E88.87916
G1 X141.04 Y107.62 E88.89838
G1 X141.04 Y179.72 E92.51678
G1 X140.657 Y179.72 E92.536
G1 X140.657 Y107.62 E96.1544
G1 X140.274 Y107.62 E96.17362
G1 X140.274 Y179.72 E99.79202
G1 X139.89 Y179.72 E99.81129
G1 X139.89 Y107.62 E103.42969
G1 X139.507 Y107.62 E103.44891
G1 X139.507 Y179.72 E107.06731
G1 X139.124 Y179.72 E107.08653
G1 X139.124 Y107.62 E110.70493
G1 X138.741 Y107.62 E110.72415
G1 X138.741 Y114.638 E111.07635
G1 X138.358 Y114.638 E111.09557
G1 X138.358 Y107.62 E111.44777
G1 X137.974 Y107.62 E111.46704
G1 X137.974 Y114.638 E111.81924
G1 X137.591 Y114.638 E111.83846
G1 X137.591 Y107.62 E112.19066
G1 X137.208 Y107.62 E112.20988
G1 X137.208 Y114.638 E112.56208
G1 X136.825 Y114.638 E112.5813
G1 X136.825 Y107.62 E112.9335
G1 X136.442 Y107.62 E112.95272
G1 X136.442 Y114.638 E113.30492
G1 X136.058 Y114.638 E113.32419
G1 X136.058 Y107.62 E113.67639
G1 X135.675 Y107.62 E113.69561
G1 X135.675 Y114.638 E114.04781
G1 X135.292 Y114.638 E114.06703
G1 X135.292 Y107.62 E114.41923
G1 X134.909 Y107.62 E114.43845
G1 X134.909 Y114.638 E114.79065
G1 X134.525 Y114.638 E114.80992
G1 X134.525 Y107.62 E115.16212
G1 X134.142 Y107.62 E115.18134
G1 X134.142 Y114.638 E115.53354
G1 X133.759 Y114.638 E115.55276
G1 X133.759 Y107.62 E115.90496
G1 X133.376 Y107.62 E115.92418
G1 X133.376 Y114.638 E116.27638
G1 X132.993 Y114.638 E116.2956
G1 X132.993 Y107.62 E116.6478
G1 X132.609 Y107.62 E116.66707
G1 X132.609 Y114.638 E117.01927
G1 X132.226 Y114.638 E117.03849
G1 X132.226 Y107.62 E117.39069
G1 X131.843 Y107.62 E117.40991
G1 X131.843 Y114.638 E117.76211
G1 X131.46 Y114.638 E117.78133
G1 X131.46 Y107.62 E118.13353
G1 X131.077 Y107.62 E118.15275
G1 X131.077 Y114.638 E118.50495
G1 X130.693 Y114.638 E118.52422
G1 X130.693 Y107.62 E118.87642
G1 X130.31 Y107.62 E118.89564
G1 X130.31 Y114.638 E119.24784
G1 X130.191 Y114.638 E119.25381
G1 X129.927 Y114.902 E119.27255
G1 X129.927 Y107.62 E119.638
G1 X129.544 Y107.62 E119.65722
G1 X129.544 Y143.507 E121.45824
G1 X129.927 Y143.507 E121.47746
G1 X129.927 Y116.681 E122.82375
G1 X130.191 Y116.945 E122.84249
G1 X130.31 Y116.945 E122.84846
G1 X130.31 Y143.507 E124.1815
G1 X130.693 Y143.507 E124.20072
G1 X130.693 Y116.945 E125.53376
G1 X131.077 Y116.945 E125.55303
G1 X131.077 Y143.507 E126.88607
G1 X131.46 Y143.507 E126.90529
G1 X131.46 Y116.945 E128.23833
G1 X131.843 Y116.945 E128.25755
G1 X131.843 Y143.507 E129.59059
G1 X132.226 Y143.507 E129.60981
G1 X132.226 Y116.945 E130.94285
G1 X132.609 Y116.945 E130.96207
G1 X132.609 Y170.395 E133.64451
G1 X132.993 Y170.395 E133.66378
G1 X132.993 Y116.945 E136.34622
G1 X133.376 Y116.945 E136.36544
G1 X133.376 Y170.395 E139.04788
G1 X133.759 Y170.395 E139.0671
G1 X133.759 Y116.945 E141.74954
G1 X134.142 Y116.945 E141.76876
G1 X134.142 Y170.395 E144.4512
G1 X134.525 Y170.395 E144.47042
G1 X134.525 Y116.945 E147.15286
G1 X134.909 Y116.945 E147.17213
G1 X134.909 Y170.395 E149.85457
G1 X135.292 Y170.395 E149.87379
G1 X135.292 Y116.945 E152.55623
G1 X135.675 Y116.945 E152.57545
G1 X135.675 Y170.395 E155.25789
G1 X136.058 Y170.395 E155.27711
G1 X136.058 Y116.945 E157.95955
G1 X136.442 Y116.945 E157.97882
G1 X136.442 Y170.395 E160.66126
G1 X136.825 Y170.395 E160.68048
G1 X136.825 Y116.945 E163.36292
G1 X137.208 Y116.945 E163.38214
G1 X137.208 Y170.395 E166.06458
G1 X137.591 Y170.395 E166.0838
G1 X137.591 Y116.945 E168.76624
G1 X137.974 Y116.945 E168.78546
G1 X137.974 Y170.395 E171.4679
G1 X138.358 Y170.395 E171.48717
G1 X138.358 Y116.945 E174.16961
G1 X138.741 Y116.945 E174.18883
G1 X138.741 Y170.55 E176.87905
G1 X138.741 Y179.875 F7800
G1 F1800
G1 X138.741 Y172.702 E177.23903
G1 X138.358 Y172.702 E177.25825
G1 X138.358 Y179.72 E177.61045
G1 X137.974 Y179.72 E177.62972
G1 X137.974 Y172.702 E177.98192
G1 X137.591 Y172.702 E178.00114
G1 X137.591 Y179.72 E178.35334
G1 X137.208 Y179.72 E178.37256
G1 X137.208 Y172.702 E178.72476
G1 X136.825 Y172.702 E178.74398
G1 X136.825 Y179.72 E179.09618
G1 X136.442 Y179.72 E179.1154
G1 X136.442 Y172.702 E179.4676
G1 X136.058 Y172.702 E179.48687
G1 X136.058 Y179.72 E179.83907
G1 X135.675 Y179.72 E179.85829
G1 X135.675 Y172.702 E180.21049
G1 X135.292 Y172.702 E180.22971
G1 X135.292 Y179.72 E180.58191
G1 X134.909 Y179.72 E180.60113
G1 X134.909 Y172.702 E180.95333
G1 X134.525 Y172.702 E180.9726
G1 X134.525 Y179.72 E181.3248
G1 X134.142 Y179.72 E181.34402
G1 X134.142 Y172.702 E181.69622
G1 X133.759 Y172.702 E181.71544
G1 X133.759 Y179.72 E182.06764
G1 X133.376 Y179.72 E182.08686
G1 X133.376 Y172.702 E182.43906
G1 X132.993 Y172.702 E182.45828
G1 X132.993 Y179.72 E182.81048
G1 X132.609 Y179.72 E182.82975
G1 X132.609 Y172.702 E183.18195
G1 X132.226 Y172.702 E183.20117
G1 X132.226 Y179.72 E183.55337
G1 X131.843 Y179.72 E183.57259
G1 X131.843 Y172.702 E183.92479
G1 X131.46 Y172.702 E183.94401
G1 X131.46 Y179.72 E184.29621
G1 X131.077 Y179.72 E184.31543
G1 X131.077 Y172.702 E184.66763
G1 X130.693 Y172.702 E184.6869
G1 X130.693 Y179.72 E185.0391
G1 X130.31 Y179.72 E185.05832
G1 X130.31 Y172.702 E185.41052
G1 X130.191 Y172.702 E185.41649
G1 X129.927 Y172.438 E185.43523
G1 X129.927 Y179.72 E185.80068
G1 X129.544 Y179.72 E185.8199
G1 X129.544 Y146.619 E187.4811
G1 X129.161 Y146.619 E187.50032
G1 X129.161 Y179.72 E189.16152
G1 X128.777 Y179.72 E189.18079
G1 X128.777 Y146.619 E190.84199
G1 X128.394 Y146.619 E190.86121
G1 X128.394 Y179.72 E192.52241
G1 X128.011 Y179.72 E192.54163
G1 X128.011 Y146.619 E194.20283
G1 X127.628 Y146.619 E194.22205
G1 X127.628 Y179.72 E195.88325
G1 X127.244 Y179.72 E195.90252
G1 X127.244 Y146.619 E197.56372
G1 X126.877 Y146.619 E197.58214
G1 X126.861 Y179.72 E199.24334
G1 X126.478 Y179.72 E199.26256
G1 X126.478 Y160.547 E200.22477
G1 X126.095 Y160.547 E200.24399
G1 X126.095 Y179.72 E201.2062
G1 X125.712 Y179.72 E201.22542
G1 X125.712 Y160.547 E202.18763
G1 X125.328 Y160.547 E202.2069
G1 X125.328 Y179.72 E203.16911
G1 X124.945 Y179.72 E203.18833
G1 X124.945 Y160.547 E204.15054
G1 X124.562 Y160.547 E204.16976
G1 X124.562 Y179.72 E205.13197
G1 X124.179 Y179.72 E205.15119
G1 X124.179 Y160.547 E206.1134
G1 X123.796 Y160.547 E206.13262
G1 X123.796 Y179.72 E207.09483
G1 X123.412 Y179.72 E207.1141
G1 X123.412 Y160.547 E208.07631
G1 X123.029 Y160.547 E208.09553
G1 X123.029 Y179.72 E209.05774
G1 X122.646 Y179.72 E209.07696
G1 X122.646 Y160.547 E210.03917
G1 X122.263 Y160.547 E210.05839
G1 X122.263 Y179.72 E211.0206
G1 X121.88 Y179.72 E211.03982
G1 X121.88 Y160.547 E212.00203
G1 X121.496 Y160.547 E212.0213
G1 X121.496 Y179.72 E212.98351
G1 X121.113 Y179.72 E213.00273
G1 X121.113 Y160.547 E213.96494
G1 X120.73 Y160.547 E213.98416
G1 X120.73 Y179.72 E214.94637
G1 X120.347 Y179.72 E214.96559
G1 X120.347 Y160.547 E215.9278
G1 X119.963 Y160.547 E215.94707
G1 X119.963 Y179.72 E216.90928
G1 X119.58 Y179.72 E216.9285
G1 X119.58 Y160.547 E217.89071
G1 X119.197 Y160.547 E217.90993
G1 X119.197 Y179.72 E218.87214
G1 X118.814 Y179.72 E218.89136
G1 X118.814 Y160.547 E219.85357
G1 X118.431 Y160.547 E219.87279
G1 X118.431 Y179.72 E220.835
G1 X118.047 Y179.72 E220.85427
G1 X118.047 Y160.547 E221.81648
G1 X117.664 Y160.547 E221.8357
G1 X117.664 Y179.72 E222.79791
G1 X117.281 Y179.72 E222.81713
G1 X117.281 Y160.547 E223.77934
G1 X116.898 Y160.547 E223.79856
G1 X116.898 Y179.72 E224.76077
G1 X116.515 Y179.72 E224.77999
G1 X116.515 Y160.547 E225.7422
G1 X116.131 Y160.547 E225.76147
G1 X116.131 Y179.72 E226.72368
G1 X115.748 Y179.72 E226.7429
G1 X115.748 Y160.547 E227.70511
G1 X115.365 Y160.547 E227.72433
G1 X115.365 Y179.72 E228.68654
G1 X114.982 Y179.72 E228.70576
G1 X114.982 Y160.547 E229.66797
G1 X114.599 Y160.547 E229.68719
G1 X114.599 Y179.72 E230.6494
G1 X114.215 Y179.72 E230.66867
G1 X114.215 Y160.547 E231.63088
G1 X113.832 Y160.547 E231.6501
G1 X113.832 Y179.72 E232.61231
G1 X113.449 Y179.72 E232.63153
G1 X113.449 Y160.547 E233.59374
G1 X113.066 Y160.547 E233.61296
G1 X113.066 Y179.72 E234.57517
G1 X112.682 Y179.72 E234.59444
G1 X112.682 Y160.547 E235.55665
G1 X112.299 Y160.547 E235.57587
G1 X112.299 Y179.72 E236.53808
G1 X111.916 Y179.72 E236.5573
G1 X111.916 Y160.547 E237.51951
G1 X111.533 Y160.547 E237.53873
G1 X111.533 Y179.72 E238.50094
G1 X111.15 Y179.72 E238.52016
G1 X111.15 Y160.547 E239.48237
G1 X110.766 Y160.547 E239.50164
G1 X110.766 Y179.72 E240.46385
G1 X110.383 Y179.72 E240.48307
G1 X110.383 Y160.547 E241.44528
G1 X110 Y160.547 E241.4645
G1 X110 Y179.72 E242.42671
G1 X109.617 Y179.72 E242.44593
G1 X109.617 Y107.62 E246.06433
G1 X110 Y107.62 E246.08355
G1 X110 Y143.507 E247.88457
G1 X110.383 Y143.507 E247.90379
G1 X110.383 Y107.62 E249.70481
G1 X110.766 Y107.62 E249.72403
G1 X110.766 Y143.507 E251.52505
G1 X111.15 Y143.507 E251.54432
G1 X111.15 Y107.62 E253.34534
G1 X111.533 Y107.62 E253.36456
G1 X111.533 Y143.507 E255.16558
G1 X111.916 Y143.507 E255.1848
G1 X111.916 Y107.62 E256.98582
G1 X112.299 Y107.62 E257.00504
G1 X112.299 Y143.507 E258.80606
G1 X112.682 Y143.507 E258.82528
G1 X112.682 Y107.62 E260.6263
G1 X113.066 Y107.62 E260.64557
G1 X113.066 Y143.507 E262.44659
G1 X113.449 Y143.507 E262.46581
G1 X113.449 Y107.62 E264.26683
G1 X113.832 Y107.62 E264.28605
G1 X113.832 Y143.507 E266.08707
G1 X114.215 Y143.507 E266.10629
G1 X114.215 Y107.62 E267.90731
G1 X114.599 Y107.62 E267.92658
G1 X114.599 Y143.507 E269.7276
G1 X114.982 Y143.507 E269.74682
G1 X114.982 Y107.62 E271.54784
G1 X115.365 Y107.62 E271.56706
G1 X115.365 Y143.507 E273.36808
G1 X115.748 Y143.507 E273.3873
G1 X115.748 Y107.62 E275.18832
G1 X116.131 Y107.62 E275.20754
G1 X116.131 Y143.507 E277.00856
G1 X116.515 Y143.507 E277.02783
G1 X116.515 Y107.62 E278.82885
G1 X116.898 Y107.62 E278.84807
G1 X116.898 Y143.507 E280.64909
G1 X117.281 Y143.507 E280.66831
G1 X117.281 Y107.62 E282.46933
G1 X117.664 Y107.62 E282.48855
G1 X117.664 Y143.507 E284.28957
G1 X118.047 Y143.507 E284.30879
G1 X118.047 Y107.62 E286.10981
G1 X118.431 Y107.62 E286.12908
G1 X118.431 Y143.507 E287.9301
G1 X118.814 Y143.507 E287.94932
G1 X118.814 Y107.62 E289.75034
G1 X119.197 Y107.62 E289.76956
G1 X119.197 Y143.507 E291.57058
