; HEADER_BLOCK_START
; generated by OrcaSlicer 2.3.0 on 2025-07-25 at 12:43:51
; total layer number: 240
;_GP_TOTAL_LAYER_NUMBER_PLACEHOLDER
; filament_density: 1.24
; filament_diameter: 1.75
; max_z_height: 48.00
; HEADER_BLOCK_END

; external perimeters extrusion width = 0.42mm
; perimeters extrusion width = 0.45mm
; infill extrusion width = 0.45mm
; solid infill extrusion width = 0.42mm
; top infill extrusion width = 0.42mm
; first layer extrusion width = 0.46mm

; EXECUTABLE_BLOCK_START
M201 X2500 Y2500 Z500 E5000
M203 X250 Y250 Z5 E40
M204 P2500 R500 T2500 ; sets acceleration (P, T) and retract acceleration (R), mm/sec^2
M205 X10.00 Y10.00 Z0.40 E5.00 ; sets the jerk limits, mm/sec
;TYPE:Custom
M220 S100 ;Reset Feedrate 
M221 S100 ;Reset Flowrate 
 
M104 S220 ;Set final nozzle temp 
M190 S55 ;Set and wait for bed temp to stabilize 
G28 ;Home 
G92 E0 ;Reset Extruder 
G1 Z2.0 F3000 ;Move Z Axis up 
G1 X-2.1 Y20 Z0.28 F5000.0 ;Move to start position 
M109 S220 ;Wait for nozzle temp to stabilize 
G1 X-2.1 Y145.0 Z0.28 F1500.0 E15 ;Draw the first line 
G1 X-2.4 Y145.0 Z0.28 F5000.0 ;Move to side a little 
G1 X-2.4 Y20 Z0.28 F1500.0 E30 ;Draw the second line 
G92 E0  ;Reset Extruder 
G1 E-1.0000 F1800 ;Retract a bit 
G1 Z2.0 F3000 ;Move Z Axis up 
G1 E0.0000 F1800
G90
G21
M83 ; use relative distances for extrusion
; Filament gcode
M106 S0
;LAYER_CHANGE
;Z:0.2
;HEIGHT:0.2
;BEFORE_LAYER_CHANGE
;0.2
G92 E0

G1 E-1.2 F2400
;_SET_FAN_SPEED_CHANGING_LAYER
M204 P500
; printing object FMY3AKNI8CW00P8.stl id:0 copy 0
M204 T500
G1 X87.731 Y117.687 F9000
G1 Z.6
G1 Z.2
G1 E1.2 F1800
;TYPE:Inner wall
;WIDTH:0.459999
G1 X87.592 Y117.444 E.00951
G1 X87.485 Y117.024 E.01475
G1 X87.456 Y116.487 E.01827
G1 X87.507 Y115.891 E.02032
G1 X87.659 Y115.452 E.01578
G1 X87.858 Y115.208 E.0107
G1 X88.088 Y115.108 E.00854
G1 X88.393 Y115.106 E.01038
G1 X89.031 Y115.456 E.02473
G1 X89.555 Y115.59 E.01836
G1 X89.859 Y115.574 E.01037
G1 X90.191 Y115.436 E.0122
G1 X90.504 Y115.143 E.01458
G1 X90.686 Y114.757 E.0145
G1 X90.804 Y114.895 E.00619
G1 X91.153 Y115.161 E.01493
G1 X91.462 Y115.238 E.0108
G1 X92.412 Y115.193 E.03233
G1 X92.381 Y115.712 E.01767
G1 X92.396 Y118.501 E.09481
G1 X92.364 Y119.187 E.02334
G1 X92.502 Y119.608 E.01507
G1 X92.693 Y119.834 E.01004
G1 X93.071 Y120.046 E.01475
G1 X93.312 Y120.1 E.00836
G1 X93.755 Y120.079 E.0151
G1 X94.1 Y119.939 E.01263
G1 X94.373 Y119.686 E.01267
G1 X94.506 Y119.444 E.00938
G1 X94.635 Y118.893 E.01923
G1 X94.619 Y118.077 E.02774
G1 X94.619 Y115.2 E.09778
G1 X95.332 Y115.2 E.02426
G1 X95.908 Y115.085 E.01994
G1 X96.204 Y114.891 E.01203
G1 X96.4 Y114.643 E.01075
G1 X96.557 Y114.936 E.01131
G1 X96.722 Y115.133 E.00873
G1 X97.035 Y115.344 E.0128
G1 X97.335 Y115.417 E.01052
G1 X97.141 Y115.685 E.01127
G1 X97.035 Y115.964 E.01012
G1 X96.997 Y116.501 E.01828
G1 X97.132 Y116.86 E.01306
G1 X97.441 Y117.157 E.01455
;WIDTH:0.453546
G1 X97.68 Y117.24 E.00849
;WIDTH:0.44918
G1 X98.344 Y117.425 E.0228
G1 X98.634 Y117.64 E.01196
;WIDTH:0.437224
G1 X98.726 Y117.828 E.00673
G1 X98.664 Y118.018 E.00642
G1 X98.582 Y118.076 E.00323
;WIDTH:0.44918
G1 X98.152 Y117.781 E.01725
G1 X97.593 Y117.623 E.01924
;WIDTH:0.453546
G1 X97.35 Y117.608 E.00815
;WIDTH:0.459999
G1 X96.918 Y117.716 E.01514
G1 X96.639 Y117.926 E.01188
G1 X96.388 Y118.289 E.01497
G1 X96.302 Y118.783 E.01705
G1 X96.414 Y119.252 E.0164
G1 X96.642 Y119.617 E.01461
G1 X97.043 Y119.933 E.01737
G1 X97.247 Y120.036 E.00776
G1 X97.942 Y120.226 E.02449
G1 X98.565 Y120.259 E.0212
G1 X99.007 Y120.222 E.01507
G1 X99.492 Y120.099 E.01701
G1 X99.968 Y119.864 E.01804
G1 X100.345 Y119.56 E.01646
G1 X100.642 Y119.201 E.01583
G1 X100.913 Y118.717 E.01887
;WIDTH:0.499202
G1 X100.972 Y118.583 E.00543
;WIDTH:0.538404
G1 X101.031 Y118.45 E.0059
;WIDTH:0.577606
G1 X101.091 Y118.316 E.00637
;WIDTH:0.616808
G1 X101.15 Y118.182 E.00683
G1 X101.162 Y118.251 E.00326
;WIDTH:0.589952
G1 X101.182 Y118.477 E.0101
;WIDTH:0.546635
G1 X101.201 Y118.703 E.0093
;WIDTH:0.503317
G1 X101.221 Y118.928 E.0085
;WIDTH:0.459999
G1 X101.348 Y119.514 E.02035
G1 X101.684 Y119.931 E.01822
G1 X101.975 Y120.067 E.0109
G1 X102.295 Y120.12 E.01102
G1 X102.886 Y120.082 E.02015
G1 X103.624 Y120.088 E.02508
G1 X104.197 Y120.054 E.01951
G1 X104.81 Y119.947 E.02113
G1 X105.34 Y119.749 E.01925
G1 X105.909 Y119.363 E.02338
G1 X106.082 Y119.723 E.01357
G1 X106.352 Y120.089 E.01548
G1 X106.853 Y120.42 E.02039
G1 X107.085 Y120.506 E.00843
G1 X107.499 Y120.567 E.0142
G1 X108.012 Y120.486 E.01768
G1 X108.242 Y120.389 E.00845
G1 X108.702 Y120.063 E.01916
G1 X108.864 Y119.827 E.00975
G1 X109.094 Y120.037 E.01057
G1 X109.451 Y120.231 E.01384
G1 X109.887 Y120.283 E.01492
G1 X110.272 Y120.151 E.01382
G1 X110.499 Y119.974 E.00977
G1 X110.862 Y119.508 E.02008
G1 X111.128 Y119.909 E.01635
G1 X111.377 Y120.131 E.01135
G1 X111.715 Y120.273 E.01247
G1 X112.001 Y120.292 E.00975
;WIDTH:0.503047
G1 X112.177 Y120.275 E.00662
;WIDTH:0.546095
G1 X112.353 Y120.257 E.00724
;WIDTH:0.589142
G1 X112.528 Y120.24 E.00786
G1 X112.741 Y120.068 E.01219
;WIDTH:0.553823
G1 X112.871 Y119.857 E.01031
;WIDTH:0.506911
G1 X113 Y119.645 E.00936
;WIDTH:0.459999
G1 X113.083 Y119.267 E.01316
G1 X113.047 Y118.873 E.01344
G1 X112.849 Y118.401 E.0174
G1 X112.206 Y117.331 E.04244
G1 X112.243 Y117.123 E.00716
G1 X112.886 Y116.036 E.04293
G1 X113.266 Y116.991 E.03492
G1 X113.869 Y118.618 E.05901
G1 X114.117 Y119.184 E.02098
G1 X114.103 Y119.387 E.00692
G1 X113.774 Y120.168 E.02882
G1 X113.601 Y120.451 E.01128
G1 X113.429 Y120.552 E.00676
;WIDTH:0.506911
G1 X113.228 Y120.585 E.00768
;WIDTH:0.553823
G1 X113.028 Y120.618 E.00846
;WIDTH:0.589142
G1 X112.809 Y120.706 E.01051
G1 X112.713 Y120.827 E.00686
;WIDTH:0.546095
G1 X112.617 Y120.948 E.00632
;WIDTH:0.503047
G1 X112.522 Y121.069 E.00578
;WIDTH:0.459999
G1 X112.398 Y121.436 E.01317
G1 X112.413 Y121.8 E.01239
G1 X112.54 Y122.181 E.01365
G1 X112.78 Y122.51 E.01382
G1 X112.997 Y122.67 E.00918
G1 X113.243 Y122.779 E.00914
G1 X113.497 Y122.819 E.00873
G1 X113.885 Y122.798 E.0132
G1 X114.383 Y122.659 E.01756
G1 X114.729 Y122.472 E.01339
G1 X115.137 Y122.169 E.01728
G1 X115.453 Y121.738 E.01815
G1 X115.648 Y121.36 E.01445
G1 X116.315 Y119.655 E.06223
G1 X116.528 Y119.056 E.02162
;WIDTH:0.500056
G1 X116.638 Y118.809 E.01007
;WIDTH:0.540113
G1 X116.747 Y118.562 E.01095
;WIDTH:0.58017
G1 X116.857 Y118.314 E.01183
;WIDTH:0.617044
G1 X117.052 Y117.82 E.02487
G1 X117.073 Y117.703 E.00556
;WIDTH:0.577783
G1 X117.094 Y117.586 E.00518
;WIDTH:0.538522
G1 X117.115 Y117.469 E.0048
;WIDTH:0.499261
G1 X117.136 Y117.352 E.00442
;WIDTH:0.459999
G1 X117.342 Y116.726 E.02241
G1 X117.565 Y116.219 E.01881
G1 X117.869 Y116.483 E.01369
G1 X118.117 Y116.588 E.00916
G1 X118.675 Y116.656 E.0191
G1 X117.891 Y117.738 E.04543
;WIDTH:0.499261
G1 X117.812 Y117.816 E.0041
;WIDTH:0.538522
G1 X117.734 Y117.894 E.00446
;WIDTH:0.577783
G1 X117.656 Y117.972 E.00481
;WIDTH:0.617044
G1 X117.577 Y118.05 E.00516
G1 X117.278 Y118.731 E.03481
;WIDTH:0.582793
G1 X117.289 Y118.891 E.00706
;WIDTH:0.541862
G1 X117.3 Y119.051 E.00653
;WIDTH:0.500931
G1 X117.311 Y119.211 E.00599
;WIDTH:0.459999
G1 X117.431 Y119.683 E.01653
G1 X117.71 Y120.049 E.01567
G1 X117.927 Y120.196 E.00888
G1 X118.437 Y120.306 E.01772
G1 X118.986 Y120.278 E.01871
G1 X120.401 Y120.283 E.04808
G1 X119.801 Y120.803 E.02697
G1 X119.253 Y121.228 E.02359
G1 X118.758 Y121.577 E.02058
G1 X118.066 Y122.015 E.02783
G1 X117.524 Y122.321 E.02116
G1 X116.82 Y122.674 E.02677
G1 X115.957 Y123.043 E.03191
G1 X115.122 Y123.337 E.03007
G1 X114.156 Y123.607 E.0341
G1 X113.229 Y123.8 E.03216
G1 X112.389 Y123.92 E.02884
G1 X111.51 Y123.991 E.02998
G1 X110.576 Y124.007 E.03174
G1 X109.926 Y123.982 E.0221
G1 X87.455 Y122.617 E.76512
G1 X86.432 Y122.536 E.0349
G1 X86.04 Y122.403 E.01406
G1 X85.752 Y122.136 E.01337
G1 X85.567 Y121.75 E.01455
G1 X85.521 Y121.395 E.01214
G1 X85.522 Y118.462 E.09968
G1 X85.629 Y118.692 E.00863
G1 X86.045 Y119.28 E.02446
G1 X86.583 Y119.747 E.02421
G1 X87.221 Y120.071 E.02433
G1 X87.955 Y120.239 E.02558
G1 X88.61 Y120.248 E.02226
G1 X89.263 Y120.137 E.02251
G1 X89.668 Y119.984 E.01471
G1 X90.074 Y119.726 E.01634
G1 X90.443 Y119.339 E.01818
G1 X90.689 Y118.872 E.01794
G1 X90.76 Y118.619 E.00892
G1 X90.719 Y118.286 E.0114
G1 X90.599 Y118.014 E.0101
G1 X90.474 Y117.852 E.00695
G1 X90.235 Y117.663 E.01037
G1 X89.706 Y117.46 E.01927
G1 X89.296 Y117.478 E.01395
G1 X88.866 Y117.67 E.016
G1 X88.673 Y117.854 E.00905
G1 X88.543 Y117.939 E.00528
G1 X88.165 Y117.951 E.01283
G1 X87.955 Y117.874 E.00762
G1 X87.775 Y117.764 E.00718
G1 X87.751 Y117.722 E.00164
G1 E-.84 F2400
;WIPE_START
G1 F1800
G1 X87.592 Y117.444 E-.11511
G1 X87.485 Y117.024 E-.15624
G1 X87.472 Y116.778 E-.08865
;WIPE_END
G17
G3 Z.6 I.912 J-.805 P1  F9000
G1 X85.523 Y114.571 Z.6
G1 Z.2
G1 E1.2 F1800
G1 X85.524 Y112.194 E.08079
G1 X85.544 Y111.506 E.0234
G1 X85.693 Y111.06 E.01597
G1 X85.871 Y110.839 E.00965
G1 X86.221 Y110.63 E.01386
G1 X86.593 Y110.55 E.01293
G1 X109.938 Y109.132 E.79486
G1 X111.031 Y109.108 E.03717
G1 X111.839 Y109.143 E.0275
G1 X112.626 Y109.223 E.02688
G1 X113.417 Y109.349 E.02723
G1 X114.474 Y109.589 E.03683
G1 X115.244 Y109.817 E.02728
G1 X116.27 Y110.199 E.03722
G1 X117.091 Y110.572 E.03064
G1 X117.974 Y111.046 E.03408
G1 X118.455 Y111.345 E.01923
G1 X118.877 Y111.628 E.01729
G1 X119.592 Y112.147 E.02999
G1 X120.35 Y112.785 E.03369
G1 X121.139 Y113.564 E.03769
;WIDTH:0.46333
G1 X121.57 Y114.036 E.02189
;WIDTH:0.476118
G1 X122.258 Y114.902 E.03904
;WIDTH:0.461329
G1 X122.569 Y115.342 E.01838
;WIDTH:0.459999
G1 X122.851 Y115.78 E.01771
G1 X123.165 Y116.322 E.02128
G1 X123.2 Y116.681 E.01226
G1 X123.081 Y116.958 E.01025
G1 X122.652 Y117.65 E.02767
G1 X122.205 Y118.287 E.02645
G1 X121.847 Y118.746 E.01977
G1 X121.722 Y118.492 E.00962
G1 X121.413 Y118.203 E.01438
G1 X121.109 Y118.08 E.01114
G1 X120.5 Y117.997 E.02089
G1 X121.404 Y116.722 E.05309
G1 X121.723 Y116.169 E.02169
G1 X121.839 Y115.743 E.01502
G1 X121.837 Y115.39 E.01202
;WIDTH:0.478232
G1 X121.672 Y114.895 E.01851
;WIDTH:0.489958
G1 X121.473 Y114.637 E.01186
G1 X121.227 Y114.494 E.01037
;WIDTH:0.46333
G1 X120.773 Y114.395 E.0159
;WIDTH:0.459999
G1 X118.572 Y114.397 E.07483
G1 X118.074 Y114.477 E.01713
G1 X117.674 Y114.728 E.01605
G1 X117.501 Y114.93 E.00904
G1 X117.342 Y114.708 E.0093
G1 X116.895 Y114.44 E.01771
G1 X116.552 Y114.406 E.01171
G1 X116.119 Y114.544 E.01544
G1 X115.752 Y114.908 E.01759
G1 X115.5 Y115.359 E.01755
G1 X115.277 Y115.99 E.02273
G1 X115.085 Y115.346 E.02281
G1 X114.859 Y114.877 E.0177
G1 X114.5 Y114.565 E.01618
G1 X114.048 Y114.409 E.01625
G1 X113.641 Y114.417 E.01384
G1 X113.28 Y114.555 E.01311
G1 X113.04 Y114.765 E.01085
G1 X112.907 Y115.015 E.00964
G1 X112.866 Y114.927 E.00331
G1 X112.66 Y114.67 E.01121
G1 X112.294 Y114.446 E.01458
G1 X111.868 Y114.398 E.01454
G1 X111.484 Y114.525 E.01375
G1 X111.284 Y114.663 E.00826
G1 X110.915 Y115.065 E.01855
G1 X110.648 Y114.728 E.01459
G1 X110.482 Y114.582 E.0075
G1 X110.183 Y114.446 E.01119
G1 X109.954 Y114.394 E.00797
G1 X109.633 Y114.418 E.01093
G1 X109.215 Y114.599 E.01549
G1 X108.908 Y114.922 E.01513
G1 X108.774 Y115.315 E.01413
G1 X108.81 Y115.766 E.01537
G1 X109.023 Y116.279 E.01887
G1 X109.628 Y117.327 E.04114
G1 X109.385 Y117.676 E.01446
G1 X109.04 Y118.281 E.02368
G1 X108.91 Y118.059 E.00874
G1 X108.618 Y117.7 E.01572
G1 X108.099 Y117.382 E.02071
G1 X107.542 Y117.285 E.0192
G1 X106.935 Y117.37 E.02084
G1 X106.999 Y116.655 E.0244
G1 X106.987 Y115.952 E.02392
G1 X106.895 Y115.373 E.01991
G1 X106.788 Y115.034 E.01208
G1 X106.612 Y114.563 E.01711
G1 X106.346 Y114.115 E.0177
G1 X105.983 Y113.704 E.01864
G1 X105.555 Y113.382 E.01819
G1 X105.097 Y113.172 E.01714
G1 X104.58 Y113.042 E.01812
G1 X104.082 Y112.98 E.01703
G1 X102.496 Y112.944 E.05393
G1 X102.156 Y112.975 E.0116
G1 X101.702 Y113.133 E.01633
G1 X101.435 Y113.359 E.01188
G1 X101.27 Y113.639 E.01106
G1 X101.197 Y114.045 E.01402
;WIDTH:0.454179
G1 X101.24 Y114.629 E.01962
;WIDTH:0.468562
G1 X101.228 Y115.423 E.02753
;WIDTH:0.503328
G1 X101.21 Y115.62 E.00745
;WIDTH:0.538094
G1 X101.193 Y115.818 E.00801
;WIDTH:0.57286
G1 X101.175 Y116.016 E.00858
G1 X101.174 Y116.821 E.03477
;WIDTH:0.60452
G1 X101.157 Y117.541 E.03295
G1 X100.943 Y116.715 E.03906
;WIDTH:0.57286
G1 X100.739 Y116.255 E.0217
G1 X100.583 Y116.036 E.01164
G1 X100.701 Y115.84 E.00987
;WIDTH:0.561661
G1 X100.742 Y115.632 E.00894
;WIDTH:0.525836
G1 X100.783 Y115.425 E.00832
;WIDTH:0.49001
G1 X100.824 Y115.218 E.0077
;WIDTH:0.454184
G1 X100.833 Y114.436 E.02618
;WIDTH:0.459999
G1 X100.686 Y113.893 E.01912
G1 X100.337 Y113.421 E.01996
G1 X100.17 Y113.27 E.00766
G1 X99.631 Y112.965 E.02105
G1 X99.016 Y112.815 E.0215
G1 X98.286 Y112.789 E.02484
G1 X97.747 Y112.864 E.0185
G1 X97.223 Y113.061 E.01901
G1 X96.876 Y113.248 E.01342
G1 X96.478 Y113.66 E.01945
G1 X96.419 Y113.503 E.00569
G1 X96.212 Y113.225 E.01179
G1 X95.989 Y113.072 E.00918
G1 X95.522 Y112.955 E.01637
G1 X92.289 Y112.966 E.10988
G1 X91.387 Y112.946 E.03065
G1 X90.893 Y113.182 E.01862
G1 X90.651 Y113.479 E.013
G1 X90.54 Y113.821 E.01224
G1 X90.45 Y113.684 E.00555
G1 X90.115 Y113.376 E.01547
G1 X89.703 Y113.085 E.01714
G1 X88.966 Y112.837 E.02643
G1 X88.132 Y112.792 E.02839
G1 X87.55 Y112.874 E.01997
G1 X87.25 Y112.974 E.01075
G1 X86.752 Y113.191 E.01844
G1 X86.195 Y113.608 E.02364
G1 X85.816 Y114.054 E.01991
G1 X85.543 Y114.536 E.01884
G1 E-.84 F2400
;WIPE_START
G1 F1800
G1 X85.535 Y113.536 E-.36
;WIPE_END
G17
G3 Z.6 I-1.207 J-.157 P1  F9000
G1 X85.12 Y116.715 Z.6
G1 Z.2
G1 E1.2 F1800
;TYPE:Outer wall
;WIDTH:0.500502
G1 X85.126 Y115.95 E.02854
;WIDTH:0.530643
G1 X85.141 Y115.24 E.02823
G1 X85.124 Y114.969 E.01081
;WIDTH:0.495321
G1 X85.106 Y114.697 E.01002
;WIDTH:0.459999
G1 X85.107 Y111.802 E.09841
G1 X85.16 Y111.261 E.01847
G1 X85.33 Y110.846 E.01525
G1 X85.583 Y110.531 E.01372
G1 X85.747 Y110.416 E.0068
G1 X86.073 Y110.241 E.01259
G1 X86.548 Y110.135 E.01652
G1 X109.92 Y108.715 E.79582
G1 X111.035 Y108.69 E.03791
G1 X111.869 Y108.727 E.02837
G1 X112.68 Y108.809 E.02769
G1 X113.497 Y108.939 E.0281
G1 X114.58 Y109.185 E.03776
G1 X115.376 Y109.421 E.02822
G1 X116.429 Y109.813 E.0382
G1 X117.276 Y110.198 E.03161
G1 X118.183 Y110.685 E.035
G1 X118.902 Y111.132 E.02875
G1 X119.812 Y111.787 E.0381
G1 X120.606 Y112.453 E.03523
G1 X121.273 Y113.093 E.03142
G1 X121.881 Y113.755 E.03055
G1 X122.5 Y114.521 E.03345
G1 X123.032 Y115.275 E.03136
G1 X123.433 Y115.936 E.02628
G1 X123.597 Y116.286 E.01314
G1 X123.611 Y116.767 E.01636
G1 X123.441 Y117.169 E.01482
G1 X123.074 Y117.768 E.02391
G1 X122.763 Y118.233 E.019
G1 X122.385 Y118.745 E.02163
G1 X121.772 Y119.515 E.03345
;WIDTH:0.411512
G1 X121.579 Y119.768 E.00954
;WIDTH:0.410059
G1 X121.337 Y119.985 E.00975
;WIDTH:0.457093
G1 X121.094 Y120.203 E.011
;WIDTH:0.459999
G1 X120.629 Y120.641 E.02173
G1 X120.065 Y121.126 E.02525
G1 X119.501 Y121.563 E.02427
G1 X118.99 Y121.924 E.02126
G1 X118.28 Y122.373 E.02854
G1 X117.72 Y122.689 E.02186
G1 X116.995 Y123.052 E.02755
G1 X116.108 Y123.432 E.0328
G1 X115.248 Y123.735 E.031
G1 X114.255 Y124.013 E.03505
G1 X113.301 Y124.211 E.0331
G1 X112.435 Y124.335 E.02972
G1 X111.53 Y124.408 E.03086
G1 X110.571 Y124.424 E.03259
G1 X109.906 Y124.399 E.02265
G1 X86.679 Y122.988 E.79086
G1 X86.163 Y122.912 E.01772
G1 X85.822 Y122.763 E.01266
G1 X85.511 Y122.513 E.01355
G1 X85.322 Y122.257 E.01081
G1 X85.16 Y121.856 E.01468
G1 X85.104 Y121.422 E.01488
G1 X85.105 Y118.111 E.11253
;WIDTH:0.496328
G1 X85.123 Y117.838 E.01012
;WIDTH:0.532656
G1 X85.142 Y117.565 E.01093
G1 X85.121 Y116.755 E.03231
G1 E-.84 F2400
;WIPE_START
G1 F1800
G1 X85.126 Y115.95 E-.28993
G1 X85.13 Y115.756 E-.07007
;WIPE_END
G17
G3 Z.6 I-.095 J1.213 P1  F9000
G1 X119.689 Y118.448 Z.6
G1 Z.2
G1 E1.2 F1800
;WIDTH:0.459999
G1 X120.47 Y118.412 E.02658
G1 X120.962 Y118.47 E.01683
G1 X121.259 Y118.606 E.01109
G1 X121.463 Y118.874 E.01145
G1 X121.508 Y119.228 E.01213
;WIDTH:0.457797
G1 X121.43 Y119.385 E.00591
;WIDTH:0.410411
G1 X121.353 Y119.542 E.00524
;WIDTH:0.402943
G1 X121.118 Y119.757 E.00935
;WIDTH:0.431471
G1 X120.906 Y119.812 E.00691
;WIDTH:0.459999
