; HEADER_BLOCK_START
; generated by OrcaSlicer 2.3.0 on 2025-08-22 at 02:10:29
; total layer number: 100
;_GP_TOTAL_LAYER_NUMBER_PLACEHOLDER
; filament_density: 1.24
; filament_diameter: 1.75
; max_z_height: 20.00
; HEADER_BLOCK_END

; external perimeters extrusion width = 0.40mm
; perimeters extrusion width = 0.40mm
; infill extrusion width = 0.40mm
; solid infill extrusion width = 0.40mm
; top infill extrusion width = 0.40mm
; first layer extrusion width = 0.40mm

; external perimeters extrusion width = 0.40mm
; perimeters extrusion width = 0.40mm
; infill extrusion width = 0.40mm
; solid infill extrusion width = 0.40mm
; top infill extrusion width = 0.40mm
; first layer extrusion width = 0.40mm

; EXECUTABLE_BLOCK_START
EXCLUDE_OBJECT_DEFINE NAME=Object_1_id_0_copy_0 CENTER=110,121 POLYGON=[[100,111],[120,111],[120,131],[100,131],[100,111]]
EXCLUDE_OBJECT_DEFINE NAME=Object_1_id_1_copy_0 CENTER=110,99 POLYGON=[[100,89],[120,89],[120,109],[100,109],[100,89]]
M106 S0
M106 P2 S0
;TYPE:Custom
PRINT_START BED=55 EXTRUDER=220
G90
G21
M82 ; use absolute distances for extrusion
G92 E0
; Filament gcode
M106 S0
M106 P2 S0
;LAYER_CHANGE
;Z:0.2
;HEIGHT:0.2
G1 E-1.2 F2400
G92 E0
;_SET_FAN_SPEED_CHANGING_LAYER
SET_VELOCITY_LIMIT ACCEL=500 ACCEL_TO_DECEL=250
; printing object Object_1 id:0 copy 0
EXCLUDE_OBJECT_START NAME=Object_1_id_0_copy_0
G1 X119.293 Y130.293 F30000
G1 Z.6
G1 Z.2
G1 E1.2 F1800
;TYPE:Inner wall
;WIDTH:0.4
G1 F3000
G1 X100.707 Y130.293 E1.7408
G1 X100.707 Y111.707 E2.2816
G1 X119.293 Y111.707 E2.8224
G1 X119.293 Y130.253 E3.36204
G1 X119.65 Y130.65 F30000
;TYPE:Outer wall
G1 F3000
G1 X100.35 Y130.65 E3.92362
G1 X100.35 Y111.35 E4.4852
G1 X119.65 Y111.35 E5.04678
G1 X119.65 Y130.61 E5.6072
G1 E4.7672 F2400
;WIPE_START
G1 F3000
G1 X118.65 Y130.612 E4.4072
;WIPE_END
G92 E0
G1 Z.6 F30000
G1 X119.186 Y112.546
G1 Z.2
G1 E1.2 F1800
;TYPE:Bottom surface
;WIDTH:0.404473
G1 F6300
G1 X118.615 Y111.975 E1.22378
G1 X118.104 Y111.975 E1.23884
G1 X119.025 Y112.896 E1.27723
G1 X119.025 Y113.407 E1.29229
G1 X117.593 Y111.975 E1.35198
G1 X117.081 Y111.975 E1.36704
G1 X119.025 Y113.919 E1.44804
G1 X119.025 Y114.43 E1.4631
G1 X116.57 Y111.975 E1.5654
G1 X116.059 Y111.975 E1.58046
G1 X119.025 Y114.941 E1.70407
G1 X119.025 Y115.453 E1.71913
G1 X115.547 Y111.975 E1.86404
G1 X115.036 Y111.975 E1.8791
G1 X119.025 Y115.964 E2.04531
G1 X119.025 Y116.475 E2.06038
G1 X114.525 Y111.975 E2.24789
G1 X114.013 Y111.975 E2.26295
G1 X119.025 Y116.987 E2.47177
G1 X119.025 Y117.498 E2.48684
G1 X113.502 Y111.975 E2.71696
G1 X112.991 Y111.975 E2.73202
G1 X119.025 Y118.009 E2.98345
G1 X119.025 Y118.521 E2.99852
G1 X112.479 Y111.975 E3.27125
G1 X111.968 Y111.975 E3.28631
G1 X119.025 Y119.032 E3.58035
G1 X119.025 Y119.543 E3.59541
G1 X111.457 Y111.975 E3.91075
G1 X110.945 Y111.975 E3.92581
G1 X119.025 Y120.055 E4.26246
G1 X119.025 Y120.566 E4.27752
G1 X110.434 Y111.975 E4.63547
G1 X109.923 Y111.975 E4.65053
G1 X119.025 Y121.077 E5.02979
G1 X119.025 Y121.588 E5.04485
G1 X109.412 Y111.975 E5.44541
G1 X108.9 Y111.975 E5.46047
G1 X119.025 Y122.1 E5.88233
G1 X119.025 Y122.611 E5.89739
G1 X108.389 Y111.975 E6.34056
G1 X107.878 Y111.975 E6.35562
G1 X119.025 Y123.122 E6.82009
G1 X119.025 Y123.634 E6.83515
G1 X107.366 Y111.975 E7.32093
G1 X106.855 Y111.975 E7.33599
G1 X119.025 Y124.145 E7.84307
G1 X119.025 Y124.656 E7.85813
G1 X106.344 Y111.975 E8.38651
G1 X105.832 Y111.975 E8.40158
G1 X119.025 Y125.168 E8.95126
G1 X119.025 Y125.679 E8.96633
G1 X105.321 Y111.975 E9.53732
G1 X104.81 Y111.975 E9.55238
G1 X119.025 Y126.19 E10.14467
G1 X119.025 Y126.702 E10.15974
G1 X104.298 Y111.975 E10.77333
G1 X103.787 Y111.975 E10.7884
G1 X119.025 Y127.213 E11.4233
G1 X119.025 Y127.724 E11.43836
G1 X103.276 Y111.975 E12.09457
G1 X102.764 Y111.975 E12.10963
G1 X119.025 Y128.236 E12.78714
G1 X119.025 Y128.747 E12.80221
G1 X102.253 Y111.975 E13.50102
G1 X101.742 Y111.975 E13.51609
G1 X119.025 Y129.258 E14.2362
G1 X119.025 Y129.769 E14.25127
G1 X101.231 Y111.975 E14.99269
G1 X100.975 Y111.975 E15.00022
G1 X100.975 Y112.231 E15.00776
G1 X118.769 Y130.025 E15.74917
G1 X118.258 Y130.025 E15.76424
G1 X100.975 Y112.742 E16.48435
G1 X100.975 Y113.253 E16.49942
G1 X117.747 Y130.025 E17.19823
G1 X117.235 Y130.025 E17.21329
G1 X100.975 Y113.765 E17.8908
G1 X100.975 Y114.276 E17.90586
G1 X116.724 Y130.025 E18.56207
G1 X116.213 Y130.025 E18.57713
G1 X100.975 Y114.787 E19.21203
G1 X100.975 Y115.298 E19.22709
G1 X115.702 Y130.025 E19.84069
G1 X115.19 Y130.025 E19.85575
G1 X100.975 Y115.81 E20.44804
G1 X100.975 Y116.321 E20.46311
G1 X114.679 Y130.025 E21.03409
G1 X114.168 Y130.025 E21.04916
G1 X100.975 Y116.832 E21.59884
G1 X100.975 Y117.344 E21.6139
G1 X113.656 Y130.025 E22.14228
G1 X113.145 Y130.025 E22.15734
G1 X100.975 Y117.855 E22.66442
G1 X100.975 Y118.366 E22.67948
G1 X112.634 Y130.025 E23.16525
G1 X112.122 Y130.025 E23.18032
G1 X100.975 Y118.878 E23.64478
G1 X100.975 Y119.389 E23.65984
G1 X111.611 Y130.025 E24.10301
G1 X111.1 Y130.025 E24.11807
G1 X100.975 Y119.9 E24.53993
G1 X100.975 Y120.412 E24.55499
G1 X110.588 Y130.025 E24.95554
G1 X110.077 Y130.025 E24.97061
G1 X100.975 Y120.923 E25.34986
G1 X100.975 Y121.434 E25.36492
G1 X109.566 Y130.025 E25.72287
G1 X109.054 Y130.025 E25.73793
G1 X100.975 Y121.946 E26.07457
G1 X100.975 Y122.457 E26.08963
G1 X108.543 Y130.025 E26.40497
G1 X108.032 Y130.025 E26.42003
G1 X100.975 Y122.968 E26.71407
G1 X100.975 Y123.479 E26.72913
G1 X107.521 Y130.025 E27.00186
G1 X107.009 Y130.025 E27.01692
G1 X100.975 Y123.991 E27.26835
G1 X100.975 Y124.502 E27.28341
G1 X106.498 Y130.025 E27.51353
G1 X105.987 Y130.025 E27.5286
G1 X100.975 Y125.013 E27.73741
G1 X100.975 Y125.525 E27.75247
G1 X105.475 Y130.025 E27.93999
G1 X104.964 Y130.025 E27.95505
G1 X100.975 Y126.036 E28.12126
G1 X100.975 Y126.547 E28.13632
G1 X104.453 Y130.025 E28.28122
G1 X103.941 Y130.025 E28.29629
G1 X100.975 Y127.059 E28.41989
G1 X100.975 Y127.57 E28.43495
G1 X103.43 Y130.025 E28.53725
G1 X102.919 Y130.025 E28.55231
G1 X100.975 Y128.081 E28.6333
G1 X100.975 Y128.593 E28.64837
G1 X102.407 Y130.025 E28.70805
G1 X101.896 Y130.025 E28.72312
G1 X100.975 Y129.104 E28.7615
G1 X100.975 Y129.615 E28.77656
G1 X101.545 Y130.186 E28.80034
; stop printing object Object_1 id:0 copy 0
; printing object Object_1 id:1 copy 0
G1 E27.96034 F2400
;WIPE_START
G1 F6300
G1 X100.975 Y129.615 E27.66985
G1 X100.975 Y129.422 E27.60034
;WIPE_END
G92 E0
EXCLUDE_OBJECT_END NAME=Object_1_id_0_copy_0
G92 E0
EXCLUDE_OBJECT_START NAME=Object_1_id_1_copy_0
G17
G3 Z.6 I.92 J.797 P1  F30000
G1 X119.293 Y108.293 Z.6
G1 Z.2
G1 E1.2 F1800
;TYPE:Inner wall
;WIDTH:0.4
G1 F3000
G1 X100.707 Y108.293 E1.7408
G1 X100.707 Y89.707 E2.2816
G1 X119.293 Y89.707 E2.8224
G1 X119.293 Y108.253 E3.36204
G1 X119.65 Y108.65 F30000
;TYPE:Outer wall
G1 F3000
G1 X100.35 Y108.65 E3.92362
G1 X100.35 Y89.35 E4.4852
G1 X119.65 Y89.35 E5.04678
G1 X119.65 Y108.61 E5.6072
G1 E4.7672 F2400
;WIPE_START
G1 F3000
G1 X118.65 Y108.612 E4.4072
;WIPE_END
G92 E0
G17
G3 Z.6 I1.216 J.036 P1  F30000
G1 X119.186 Y90.546 Z.6
G1 Z.2
G1 E1.2 F1800
;TYPE:Bottom surface
;WIDTH:0.404473
G1 F6300
G1 X118.615 Y89.975 E1.22378
G1 X118.104 Y89.975 E1.23884
G1 X119.025 Y90.896 E1.27723
G1 X119.025 Y91.407 E1.29229
G1 X117.593 Y89.975 E1.35198
G1 X117.081 Y89.975 E1.36704
G1 X119.025 Y91.919 E1.44804
G1 X119.025 Y92.43 E1.4631
G1 X116.57 Y89.975 E1.5654
G1 X116.059 Y89.975 E1.58046
G1 X119.025 Y92.941 E1.70407
G1 X119.025 Y93.453 E1.71913
G1 X115.547 Y89.975 E1.86404
G1 X115.036 Y89.975 E1.8791
G1 X119.025 Y93.964 E2.04531
G1 X119.025 Y94.475 E2.06038
G1 X114.525 Y89.975 E2.24789
G1 X114.013 Y89.975 E2.26295
G1 X119.025 Y94.987 E2.47177
G1 X119.025 Y95.498 E2.48684
G1 X113.502 Y89.975 E2.71696
G1 X112.991 Y89.975 E2.73202
G1 X119.025 Y96.009 E2.98345
G1 X119.025 Y96.521 E2.99852
G1 X112.479 Y89.975 E3.27125
G1 X111.968 Y89.975 E3.28631
G1 X119.025 Y97.032 E3.58035
G1 X119.025 Y97.543 E3.59541
G1 X111.457 Y89.975 E3.91075
G1 X110.945 Y89.975 E3.92581
G1 X119.025 Y98.055 E4.26246
G1 X119.025 Y98.566 E4.27752
G1 X110.434 Y89.975 E4.63547
G1 X109.923 Y89.975 E4.65053
G1 X119.025 Y99.077 E5.02979
G1 X119.025 Y99.588 E5.04485
G1 X109.412 Y89.975 E5.44541
G1 X108.9 Y89.975 E5.46047
G1 X119.025 Y100.1 E5.88233
G1 X119.025 Y100.611 E5.89739
G1 X108.389 Y89.975 E6.34056
G1 X107.878 Y89.975 E6.35562
G1 X119.025 Y101.122 E6.82009
G1 X119.025 Y101.634 E6.83515
G1 X107.366 Y89.975 E7.32093
G1 X106.855 Y89.975 E7.33599
G1 X119.025 Y102.145 E7.84307
G1 X119.025 Y102.656 E7.85813
G1 X106.344 Y89.975 E8.38651
G1 X105.832 Y89.975 E8.40158
G1 X119.025 Y103.168 E8.95126
G1 X119.025 Y103.679 E8.96633
G1 X105.321 Y89.975 E9.53732
G1 X104.81 Y89.975 E9.55238
G1 X119.025 Y104.19 E10.14467
G1 X119.025 Y104.702 E10.15974
G1 X104.298 Y89.975 E10.77333
G1 X103.787 Y89.975 E10.7884
G1 X119.025 Y105.213 E11.4233
G1 X119.025 Y105.724 E11.43836
G1 X103.276 Y89.975 E12.09457
G1 X102.764 Y89.975 E12.10963
G1 X119.025 Y106.236 E12.78714
G1 X119.025 Y106.747 E12.80221
G1 X102.253 Y89.975 E13.50102
G1 X101.742 Y89.975 E13.51609
G1 X119.025 Y107.258 E14.2362
G1 X119.025 Y107.769 E14.25127
G1 X101.231 Y89.975 E14.99269
G1 X100.975 Y89.975 E15.00022
G1 X100.975 Y90.231 E15.00776
G1 X118.769 Y108.025 E15.74917
G1 X118.258 Y108.025 E15.76424
G1 X100.975 Y90.742 E16.48435
G1 X100.975 Y91.253 E16.49942
G1 X117.747 Y108.025 E17.19823
G1 X117.235 Y108.025 E17.21329
G1 X100.975 Y91.765 E17.8908
G1 X100.975 Y92.276 E17.90586
G1 X116.724 Y108.025 E18.56207
G1 X116.213 Y108.025 E18.57713
G1 X100.975 Y92.787 E19.21203
G1 X100.975 Y93.298 E19.22709
G1 X115.702 Y108.025 E19.84069
G1 X115.19 Y108.025 E19.85575
G1 X100.975 Y93.81 E20.44804
G1 X100.975 Y94.321 E20.46311
G1 X114.679 Y108.025 E21.03409
G1 X114.168 Y108.025 E21.04916
G1 X100.975 Y94.832 E21.59884
G1 X100.975 Y95.344 E21.6139
G1 X113.656 Y108.025 E22.14228
G1 X113.145 Y108.025 E22.15734
G1 X100.975 Y95.855 E22.66442
G1 X100.975 Y96.366 E22.67948
G1 X112.634 Y108.025 E23.16525
G1 X112.122 Y108.025 E23.18032
G1 X100.975 Y96.878 E23.64478
G1 X100.975 Y97.389 E23.65984
G1 X111.611 Y108.025 E24.10301
G1 X111.1 Y108.025 E24.11807
G1 X100.975 Y97.9 E24.53993
G1 X100.975 Y98.412 E24.55499
G1 X110.588 Y108.025 E24.95554
G1 X110.077 Y108.025 E24.97061
G1 X100.975 Y98.923 E25.34986
G1 X100.975 Y99.434 E25.36492
G1 X109.566 Y108.025 E25.72287
G1 X109.054 Y108.025 E25.73793
G1 X100.975 Y99.946 E26.07457
G1 X100.975 Y100.457 E26.08963
G1 X108.543 Y108.025 E26.40497
G1 X108.032 Y108.025 E26.42003
G1 X100.975 Y100.968 E26.71407
G1 X100.975 Y101.479 E26.72913
G1 X107.521 Y108.025 E27.00186
G1 X107.009 Y108.025 E27.01692
G1 X100.975 Y101.991 E27.26835
G1 X100.975 Y102.502 E27.28341
G1 X106.498 Y108.025 E27.51353
G1 X105.987 Y108.025 E27.5286
G1 X100.975 Y103.013 E27.73741
G1 X100.975 Y103.525 E27.75247
G1 X105.475 Y108.025 E27.93999
G1 X104.964 Y108.025 E27.95505
G1 X100.975 Y104.036 E28.12126
G1 X100.975 Y104.547 E28.13632
G1 X104.453 Y108.025 E28.28122
G1 X103.941 Y108.025 E28.29629
G1 X100.975 Y105.059 E28.41989
G1 X100.975 Y105.57 E28.43495
G1 X103.43 Y108.025 E28.53725
G1 X102.919 Y108.025 E28.55231
G1 X100.975 Y106.081 E28.6333
G1 X100.975 Y106.593 E28.64837
G1 X102.407 Y108.025 E28.70805
G1 X101.896 Y108.025 E28.72312
G1 X100.975 Y107.104 E28.7615
G1 X100.975 Y107.615 E28.77656
G1 X101.545 Y108.186 E28.80034
; stop printing object Object_1 id:1 copy 0
M106 S255
M106 P2 S178
;LAYER_CHANGE
;Z:0.4
;HEIGHT:0.2
G1 E27.96034 F2400
;WIPE_START
G1 F6300
G1 X100.975 Y107.615 E27.66985
G1 X100.975 Y107.422 E27.60034
;WIPE_END
G92 E0
EXCLUDE_OBJECT_END NAME=Object_1_id_1_copy_0
G92 E0
;_SET_FAN_SPEED_CHANGING_LAYER
SET_VELOCITY_LIMIT ACCEL=2500 ACCEL_TO_DECEL=1250
M140 S55 ; set bed temperature
; printing object Object_1 id:0 copy 0
EXCLUDE_OBJECT_START NAME=Object_1_id_0_copy_0
G17
G3 Z.8 I-.949 J.762 P1  F30000
G1 X119.443 Y130.443 Z.8
G1 Z.4
G1 E1.2 F1800
;TYPE:Inner wall
;WIDTH:0.4
G1 F10081.784
G1 X100.557 Y130.443 E1.74953
G1 X100.557 Y111.557 E2.29906
G1 X119.443 Y111.557 E2.84859
G1 X119.443 Y130.403 E3.39696
G1 X119.8 Y130.8 F30000
;TYPE:Outer wall
G1 F10081.784
G1 X100.2 Y130.8 E3.96727
G1 X100.2 Y111.2 E4.53758
G1 X119.8 Y111.2 E5.10789
G1 X119.8 Y130.76 E5.67703
G1 E4.71509 F2400
;WIPE_START
G1 F10081.784
G1 X118.8 Y130.762 E4.47703
;WIPE_END
G92 E0
G1 Z.8 F30000
G1 X117.627 Y130.086
G1 Z.4
G1 E1.2 F1800
;TYPE:Internal solid infill
;WIDTH:0.399999
G1 F10081.802
G1 X119.086 Y130.086 E1.24244
G1 X119.086 Y128.627 E1.28488
G1 X117.656 Y130.058 E1.34374
G1 X118.69 Y129.605 F30000
;WIDTH:0.540246
G1 F7238.713
G2 X118.701 Y129.693 I-.03 J.049 E1.35419
G1 X116.958 Y130.3 F30000
;WIDTH:0.401049
G1 F10052.244
G1 X119.139 Y128.118 E1.44423
G1 X119.139 Y127.612 E1.45901
G1 X116.612 Y130.139 E1.56332
G1 X116.105 Y130.139 E1.5781
G1 X119.139 Y127.105 E1.70331
G1 X119.139 Y126.599 E1.71809
G1 X115.599 Y130.139 E1.86421
G1 X115.093 Y130.139 E1.87899
G1 X119.139 Y126.093 E2.046
G1 X119.139 Y125.586 E2.06078
G1 X114.586 Y130.139 E2.2487
G1 X114.08 Y130.139 E2.26349
G1 X119.139 Y125.08 E2.47231
G1 X119.139 Y124.573 E2.48709
G1 X113.573 Y130.139 E2.71681
G1 X113.067 Y130.139 E2.73159
G1 X119.139 Y124.067 E2.98222
G1 X119.139 Y123.56 E2.997
G1 X112.56 Y130.139 E3.26853
G1 X112.054 Y130.139 E3.28331
G1 X119.139 Y123.054 E3.57574
G1 X119.139 Y122.547 E3.59053
G1 X111.547 Y130.139 E3.90386
G1 X111.041 Y130.139 E3.91864
G1 X119.139 Y122.041 E4.25288
G1 X119.139 Y121.534 E4.26766
G1 X110.534 Y130.139 E4.6228
G1 X110.028 Y130.139 E4.63758
G1 X119.139 Y121.028 E5.01362
G1 X119.139 Y120.521 E5.0284
G1 X109.521 Y130.139 E5.42535
G1 X109.015 Y130.139 E5.44013
G1 X119.139 Y120.015 E5.85798
G1 X119.139 Y119.508 E5.87276
G1 X108.508 Y130.139 E6.31151
G1 X108.002 Y130.139 E6.32629
G1 X119.139 Y119.002 E6.78594
G1 X119.139 Y118.495 E6.80072
G1 X107.495 Y130.139 E7.28128
G1 X106.989 Y130.139 E7.29606
G1 X119.139 Y117.989 E7.79752
G1 X119.139 Y117.483 E7.8123
G1 X106.483 Y130.139 E8.33466
G1 X105.976 Y130.139 E8.34944
G1 X119.139 Y116.976 E8.8927
G1 X119.139 Y116.47 E8.90748
G1 X105.47 Y130.139 E9.47165
G1 X104.963 Y130.139 E9.48643
G1 X119.139 Y115.963 E10.0715
G1 X119.139 Y115.457 E10.08628
G1 X104.457 Y130.139 E10.69225
G1 X103.95 Y130.139 E10.70703
G1 X119.139 Y114.95 E11.3339
G1 X119.139 Y114.444 E11.34868
G1 X103.444 Y130.139 E11.99646
G1 X102.937 Y130.139 E12.01124
G1 X119.139 Y113.937 E12.67992
G1 X119.139 Y113.431 E12.6947
G1 X102.431 Y130.139 E13.38428
G1 X101.924 Y130.139 E13.39906
G1 X119.139 Y112.924 E14.10954
G1 X119.139 Y112.418 E14.12432
G1 X101.418 Y130.139 E14.85571
G1 X100.911 Y130.139 E14.87049
G1 X119.139 Y111.911 E15.62278
G1 X119.139 Y111.861 E15.62426
G1 X118.684 Y111.861 E15.63756
G1 X100.861 Y129.684 E16.37313
G1 X100.861 Y129.177 E16.38791
G1 X118.177 Y111.861 E17.10259
G1 X117.671 Y111.861 E17.11737
G1 X100.861 Y128.671 E17.81114
G1 X100.861 Y128.164 E17.82592
G1 X117.164 Y111.861 E18.49879
G1 X116.658 Y111.861 E18.51357
G1 X100.861 Y127.658 E19.16554
G1 X100.861 Y127.151 E19.18032
G1 X116.151 Y111.861 E19.81138
G1 X115.645 Y111.861 E19.82616
G1 X100.861 Y126.645 E20.43632
G1 X100.861 Y126.138 E20.4511
G1 X115.138 Y111.861 E21.04036
G1 X114.632 Y111.861 E21.05514
G1 X100.861 Y125.632 E21.6235
G1 X100.861 Y125.125 E21.63828
G1 X114.125 Y111.861 E22.18574
G1 X113.619 Y111.861 E22.20052
G1 X100.861 Y124.619 E22.72707
G1 X100.861 Y124.113 E22.74185
G1 X113.113 Y111.861 E23.2475
G1 X112.606 Y111.861 E23.26228
G1 X100.861 Y123.606 E23.74702
G1 X100.861 Y123.1 E23.7618
G1 X112.1 Y111.861 E24.22565
G1 X111.593 Y111.861 E24.24043
G1 X100.861 Y122.593 E24.68337
G1 X100.861 Y122.087 E24.69815
G1 X111.087 Y111.861 E25.12019
G1 X110.58 Y111.861 E25.13497
G1 X100.861 Y121.58 E25.53611
G1 X100.861 Y121.074 E25.55089
G1 X110.074 Y111.861 E25.93112
G1 X109.567 Y111.861 E25.9459
G1 X100.861 Y120.567 E26.30523
G1 X100.861 Y120.061 E26.32001
G1 X109.061 Y111.861 E26.65844
G1 X108.554 Y111.861 E26.67322
G1 X100.861 Y119.554 E26.99075
G1 X100.861 Y119.048 E27.00553
G1 X108.048 Y111.861 E27.30215
G1 X107.541 Y111.861 E27.31693
G1 X100.861 Y118.541 E27.59265
G1 X100.861 Y118.035 E27.60743
